/* XPM */
static char *c040893cc09342d3aea455c9ccb85060K4VgKrTlAcN3BBek[] = {
/* columns rows colors chars-per-pixel */
"128 128 256 2 ",
"   c #3C281B",
".  c #382D27",
"X  c #3A332C",
"o  c #3A3833",
"O  c #2B2A28",
"+  c #271F1A",
"@  c #4C2D1B",
"#  c #452B1A",
"$  c #542D1A",
"%  c #5B2E1A",
"&  c #572B16",
"*  c #4A321E",
"=  c #54321D",
"-  c #5C331D",
";  c #58351A",
":  c #662E17",
">  c #64331C",
",  c #6C341C",
"<  c #69371C",
"1  c #73341C",
"2  c #7B351B",
"3  c #74391E",
"4  c #79361A",
"5  c #742F15",
"6  c #452D24",
"7  c #4C3422",
"8  c #483629",
"9  c #543522",
"0  c #5B3522",
"q  c #543B24",
"w  c #5C3B24",
"e  c #543C2A",
"r  c #5C3D2A",
"t  c #53362B",
"y  c #473B34",
"u  c #563D32",
"i  c #542F21",
"p  c #633621",
"a  c #6B3621",
"s  c #633B23",
"d  c #6B3B23",
"f  c #663D29",
"g  c #733C23",
"h  c #7B3D23",
"j  c #743A24",
"k  c #603E33",
"l  c #5C432A",
"z  c #5A4429",
"x  c #4B443B",
"c  c #49453A",
"v  c #584739",
"b  c #59533C",
"n  c #644226",
"m  c #6C4226",
"M  c #64442A",
"N  c #6B442A",
"B  c #644A2D",
"V  c #6C4B2D",
"C  c #6A4826",
"Z  c #734226",
"A  c #7B4326",
"S  c #73442A",
"D  c #7A4529",
"F  c #734B2D",
"G  c #7B4B2D",
"H  c #774926",
"J  c #6A512E",
"K  c #76522E",
"L  c #6C4C31",
"P  c #654B34",
"I  c #734D32",
"U  c #794C32",
"Y  c #6C5333",
"T  c #695537",
"R  c #745333",
"E  c #7B5433",
"W  c #745A35",
"Q  c #7C5B35",
"!  c #745B3A",
"~  c #7B5C3A",
"^  c #785539",
"/  c #7C623C",
"(  c #76623C",
")  c #6E623D",
"_  c #4D4A41",
"`  c #534D42",
"'  c #5A4D42",
"]  c #555244",
"[  c #5B5444",
"{  c #5D5A4B",
"}  c #5B5648",
"|  c #5A584B",
" . c #635C4C",
".. c #665846",
"X. c #645E50",
"o. c #6D5644",
"O. c #69634C",
"+. c #7C6442",
"@. c #786847",
"#. c #6B6553",
"$. c #696554",
"%. c #736B54",
"&. c #736D5A",
"*. c #786A54",
"=. c #7B735C",
"-. c #797258",
";. c #7D724C",
":. c #7C7561",
">. c #3F4137",
",. c #863719",
"<. c #963816",
"1. c #843D21",
"2. c #AB3913",
"3. c #854829",
"4. c #835534",
"5. c #835B36",
"6. c #835C3A",
"7. c #8A5A37",
"8. c #8B5331",
"9. c #83633C",
"0. c #8B643C",
"q. c #8C6A3D",
"w. c #85663A",
"e. c #95683D",
"r. c #99713E",
"t. c #A36B39",
"y. c #836542",
"u. c #846A44",
"i. c #8C6C43",
"p. c #886A47",
"a. c #936C43",
"s. c #976C45",
"d. c #8C7245",
"f. c #8C734B",
"g. c #86754B",
"h. c #947244",
"j. c #9B7344",
"k. c #94744B",
"l. c #9A754B",
"z. c #947A4C",
"x. c #9C7B4C",
"c. c #9B7A46",
"v. c #8C7A54",
"b. c #82755C",
"n. c #847A5D",
"m. c #8B7C5C",
"M. c #877554",
"N. c #947C53",
"B. c #9B7D52",
"V. c #947C58",
"C. c #836B51",
"Z. c #A37D4C",
"A. c #A67946",
"S. c #A47E52",
"D. c #AF7546",
"F. c #847B63",
"G. c #887C63",
"H. c #927E61",
"J. c #8C815A",
"K. c #9C8254",
"L. c #94825C",
"P. c #9C845B",
"I. c #99865A",
"U. c #9B814E",
"Y. c #A8824D",
"T. c #B4844D",
"R. c #A38454",
"E. c #AB8453",
"W. c #A3865A",
"Q. c #A48B5B",
"!. c #AB8C5C",
"~. c #A88955",
"^. c #B38B54",
"/. c #B28C5A",
"(. c #B78955",
"). c #AC915D",
"_. c #B4925D",
"`. c #BB935B",
"'. c #BA9459",
"]. c #8C8264",
"[. c #8C836A",
"{. c #898367",
"}. c #938563",
"|. c #9C8B64",
" X c #948A6B",
".X c #9B8D6C",
"XX c #968767",
"oX c #9D926A",
"OX c #978D72",
"+X c #9D9374",
"@X c #A38C62",
"#X c #A78D65",
"$X c #AC9363",
"%X c #A4936C",
"&X c #AB956A",
"*X c #AC9A6C",
"=X c #A59466",
"-X c #B39563",
";X c #BC9A64",
":X c #B49B6B",
">X c #BB9D6B",
",X c #B69765",
"<X c #A39573",
"1X c #AC9C74",
"2X c #A89B77",
"3X c #B49E73",
"4X c #B28F61",
"5X c #BCA16C",
"6X c #ADA279",
"7X c #B4A274",
"8X c #BCA474",
"9X c #B4A47B",
"0X c #BCAA7C",
"qX c #B8A77B",
"wX c #C6985B",
"eX c #C99053",
"rX c #C39C64",
"tX c #C59D67",
"yX c #CD9F65",
"uX c #C4A36C",
"iX c #CAA46A",
"pX c #D4A86B",
"aX c #C3A572",
"sX c #C4A974",
"dX c #CBAB74",
"fX c #C3AC7B",
"gX c #CAAB78",
"hX c #D2AD73",
"jX c #D6AE74",
"kX c #CAB17C",
"lX c #D8B479",
"zX c #DAB06E",
"xX c #E5BA7A",
"cX c #E2AE6A",
"vX c #D6A25E",
"bX c #F2C27E",
"nX c #B9AA83",
"mX c #BEB285",
"MX c #ACA183",
"NX c #C3AE82",
"BX c #C3B284",
"VX c #CBB584",
"CX c #CAB88A",
"ZX c #D5BB87",
"AX c #CDBD92",
"SX c #E3BE83",
"DX c #DAC18D",
"FX c #D8C595",
"GX c #CFC192",
"HX c #E7C489",
"JX c #E4CB97",
"KX c #F6D69C",
"LX c #EFCE93",
"PX c #EBD6A4",
"IX c #F4DBA6",
"UX c #FBE3AE",
/* pixels */
"5 g A A - q R.2Xc w ..^.> l R.9X-.t p O.j.h / }.s f _ CXiXK 3.u.XXi c n._.Y 1 2 , > 5 ,., 2 ,.<.J Q.<Xx 0 +XQ 2 W _.|.} f t .XJ : `.] % v #.6Xr.e , -X[ 9 c 6XcXB <.: 1 : ,.: > 1 , p r.kXb.u P LXa f h.ZXOXX a y iX0 m SX. d c NX,X0.0 s.sXv o.XXxXE 1 h Z Z g ",
": W u.i.q % s T L.&.O.:XG < R f.sX+Xx %.h.h a.<XX F.VXU.Y > - !.{ #.|.u.w , q q.T.e.p - D.(.q.q 3 G B.|.%.} Q.q 1 F / &X%.c 1X~ , Y. .x n.Q.J @ < W :Xo -.sXd.Z 2 V h.w.9., l T.Y.Q d 3 a.!.}.} XXi.g Z ~ ;X9X .c xXs N HXc %.&XrX5.= D d.OX#.>Xx.G a V z.+.R.l ",
"2 w.{.=.uXY * # l f.*XBXgXa.@ h 6.rXVXVX(.3.l.KXFXpXk.s , K R.VXCXf.6.- @ Q -X].6X-Xw m iXnXBX;X0.s : z !.6XmX-XV A > B x.ZXVXW 3 Y.BX*Xw.* @ B R.0X6X.Xu.I h n a.lX.X<XY.2 K 0X<XqXvXV a g 9.>XPXBXz.V > 9 ! dXJXhXs w 5XUXjXe.N 3.~ dX9XJXI.K d 4.u.!.n.=.ZXV ",
", q.=.y %.VXx.q @ g 6.-XCXDXhXe.p g ~ +.i.,.T K./ B j E /.*X1X$X9.> p R ~.9X:.O _ ,XF s pX&.o &.FXrXY @ - W xXIX0X_.Y g @ F ~ 8 : Y Y l > N +.sXFXkXB.~ h q 9.uXnX&.X OXd., V 0Xo c OXZX'.B 1.U T.kXGX7Xy.* @ 7 T W s f T W N h B R.fXnXSXl.p m T K.%X%.x c 8X~ ",
"4 w Q.%.p x 1X@Xx.R a S +.sXAXVX/.F - - a <.4 3.d q l.%X6XVXx.q 3 l j.ZXFXo @ y 2Xi.& 2 9.2X. 0 O 6X0X^.M : 0 j.kXGXJXl.q % 2 ,.,., - * y.$XAXCXN.M - d 7.rXBX{._ h [ gXl 5 9 ^.F.t k ] CXdXA.s , R ,XJXBX&X( 0   , <.<.2 1 q k.kXmX6Xz.V = l Z.$XoX] 6 e nXY.m ",
"z , l. Xy b.#Xi.uX-XW n p ^ B.VXPX%Xk./.q., R `./.hXFXFXQ.6.3 N 9.W.HXlXgX{.X  .-X* 0 = B dX:.O  X&XQ.kX,Xq.9 , B !.1XCX@X;XK.~ a _.#Xv.9XqXI.W 0 - M Z.lXSXjXkXF.y 6Xd.>   > R =Xx x CXhXhXSX^.R 0 h 0.:XmXFXaX)./ n B ).dXgXGXCX$XW = * W ~.lXhX$X*X] x 7X6.h ",
"_.D E 8X].I.7 # e ^.,XW.F f g f.!.8X<Xb.dX% u.}.b.BXaXk.s % V pXdX'.~ M ~ tXXX1Xq.: e.5.@ J 0XF.).6 6 B z.:XiXB $ $ ~ !.NX}  X! 0 $X&.+X=XR.I < q j.dXjXl.M z ! *X-.$Xz $ r.F - Z..XBXx.e z i._.aXc.z , q T -XBXc 0Xl B 1Xc 2X).d.w 2 e j.>X;Xj.^ e q.7X6Xx.A R ",
"AXl.< f.qX+.q f.6.9 k.^.r.@ a S I ~ >XMXzXd u.2XXX+.M w N $ z Y.Z.M G $XI rXPXx.g S sX$X= # ~.mXi.7 ;.m 7 9.Y.z @ n * 0 a.v.BXu.F N.XXg.B 9 S s 9 e.Y.l 0 a.f.R uXBXY., Q 0XR.h F $X1Xi.~ +.0 R A.j.M d B q 7 h. XZXw I kXXX( w $ C s 7 w.D.M M /.s.R 7XZXB 3.).",
"] $Xq B Q.Q.V s.r.+.n - D I 4XV.k.s 6.~ Q 2 I y.i.s k.@.1XN.p 0 s N.D.rX9 E.kXR , `.-.O.d.: z 7XR.  i.0.k.0 $ - d.XXL.l.p N C N , q R M 9 g.b.@Xn p s ^ @XT.s.~ gX).q 0 xXX.1Xi.> W 0X~ e r.Z.~ j - V v.O.I.R = K 7.= - K E 0 R 5X.XgXN > 0 a.B.D.L d.VXj., l.1X",
"L XXa.< d.Q.~ R O.x k.Y S.;.[  .#XL A A < <.< Z m 9 g.%.o #.#Xl.V n.|.f T dXeX1 N gX6 . ZXF $ Y.hXl M m...z +.P. .X b.R.f 3.A g 2 Z Z j n gX$.` H.N.y.+. .B.N x.@XQ % i.].F #.-Xm w ;XY.6 W O.B.+.P.}.o o }.P 0 D 3.3 1.Z A 0 u.qXc c 1X$Xv k.} i.L cX`.m l :X..",
"#.&.,Xs 7._.~.M W +.N.@Xv } G.M.^ l tX:XSXR i.V.Q.T 7 +.C. .P *.K.T +.N wXhXN a K.[.` ] F._.% l hXY.N k.y.-X*.8 =.N.R q S.kX|.x.a S.;.tXl V B.1Xy T XXB.a.L B pXZ.= R :Xc [ ] XX0.: k.dXq.q V.~ =Xv v n.f.N 6 N.}.7XR 5.BX3XR.f F /.XXv o.@Xy.+.Z T.HXQ < B.9X` ",
"xXCXDXA.A i.hX`.n I L.@.O.v.p.l ~ #XX.v V.^ B.[ v -.R.E I p.1Xu O.f.g i.kXj.1 W DXAXpXdXBXCXY 3 W sXR h 4X] 8 3Xi.9 I -X+Xy [ !.S ,Xv  .&Xi.S 6.>XO.v &X7.3.'.hXF < K.nXNX;X*X<X$X= w `.zX# p :Xu v @XB q / P.O.X #.5.7.OX6 &.>X! r B :X..v @XM N zXyXg ~ kXGXSX",
"h !.0XsX4.8.Q i.w u.T b +.R E B.H.&.<Xv.dX~ E.&XXX{ =.>XE.z i.|.P %Xm B j.d - ZXCXj., h Z.PX$X- w j.M d qXr @XV q N.<XX.OX2X#Xl.E ,XV.OXO.F.@Xa.N +.b.P tXs A.0.h ! mXVXQ p J 5XAX0.< B T.9 9.%.v Q.* z $X[.{ <Xv.aXe.G dXL.F.O.F.v.J w &Xo.} B.Z r.B 3.,XFXtXZ ",
"e D $XfXE.A w r V m.y $XM x.H.] n.v.Q 4.S 1 , 4.5.T }.:.m.K.M @.-.X.`.p u 1.`.PXrXa M M Z dX1X( > P p !.} b.k.w -X$.&.dXA.3.< 3 4 s G e.g..X#.3XE.M L.} H.4.0 s 4.gXCXj.d z s k.VXkXN , e s @Xo J.M ~ 8X] H.;XE d p , , A 3.7.tXXX` %XT M kXo kXG r j a.JX8XE p ",
"eXF s.ZXfX/ G h v.] m.Y E *XF.v.y.D s N r > w n w = V v.F.} z.F =X_ b.Q 4 R ZXJXQ a q.A.g u.qX8XG : 9.].` !.M f.&.].B.4.> N w r 5 e M f g 5.gX[.<X6.R %Xx 4Xd 3.!.PXdXp 7.Y.E 3.,XGXR.@ & R. .&.a.I =X$.:Xa.> * e 9.s $ L L s $ Y |.` L.I k.F.] P.1.A lXGXl.> q.",
"DXe.g N.AX7X+.n C. .C.9 >X{ L.4.d B l.uX^.3 V iXiXq.w A f.{ ].y.z %.&.i.g $XJXR.3 V LXZXV , $XPXR.p p.F.-.4.! -.%./.3.w T.lXxXV 4 Z.aXR.9.p 7.@X} >XE B.&.%X8.i.DXJXQ h R.BXj.p a.VX0XQ & Q.o P.t 4X` J.V % T x.*XrXD s `.LXiX~ > F |.] K.w W.] 8Xg /.PXhXZ G hX",
"+XhXq V sXIXQ.V f.5XI h.OX].5.p e.P.m.9XwX2 0.JX].*X~.N q I.{ L.7 ;.@XS 9.PXZXF g /. X{.z.> 0.KXJXY R kX~.S :X{ aXS N R.nXOXDXR 2 x. X.XgXA.w i.<X=.E.4.ZXR.f -XPXpXg R aX=.&XK h R.JX>X* 9.7X0.N 1XF.u.% W gX X{.uXs s ;X XnXgX~ $ x.:.oX4.I 9X9.m KXDXA.g l.mX",
"' <Xj.g k.HX8X9.N ! I |. .N.> B kX-.' 6XA.2 ! fXo b 6XZ.s B *.[ T 8 P N 5XGX^.& W &X' y 7XQ 1 iXIXtXs N 7 k.$.].Q s Y.7Xc [ DXK 1 z.=..  .fXQ s N.} &XV M m ~ KXJXE , ~.XXt =.iXd N $XBX9.a ! q 4Xc dX- l Q. X8 $.hXd d pX&.y [.I.l > gXc L.7 R 0 E.FX,X0 M iX#.",
", $.HXF m >XnX:XV = W.[ O.B M ~.].y v |.A., Y VXX t c sXB a I.c O.8 @ i.J.1XV 0 pXOXf i G.pXg R PXqXE., Q 1XX :Xg E LX&.6 y ZXJ > ^.F.8 '  XK.9 R -.x L.d E $X<X>Xd ~ HXc 2 v 1XA., ;.nX8X0., k.=.` R.- ^.+Xy v =.;Xd j cX&.P o PXc.% P.X.O.i.: ! ZXMXi.g /. Xu ",
"..X.0Xu.> R.=.9XV s |.y v.s ~ 5X+X Xn.*Xe.1.y.VXF. X+XFX9.> K.X b / ; Q.] J.B 9 SXF.%. .:.lXN n fXc sXm k. .. $X, q.IXOX X[.3Xz < K.]. X].oX:Xz s m.X }.3.~ +X:.pXh / DX&.$.:.mX`.$ h.MX:.~.% !.X  .q.0 ~..X1XXXZX~.d j wXqXXXMXFXpXp i. .X uXg ;XF..Xq.g rX2X .",
"B.B._.v < E.>XQ.E Z J.&X;Xp Y ^.R.z.i.9.E < W wX`.U.k._.( < u.V.J.T - ~.v.`.s w ^.R.rX!.~.U.n G ;X:X'.g i.:XM.g.& B U.z.k.R.d.z - T x.9.A.j.W * d ;Xv.uXA Q iX,XA.,.~ Z.A.l.wX_.q.$ R xXlXc.& iX#X>XB s q.a.A.r.A.K d g 0.s.q.A.^.A.9 F @X=XrX, h.-XE.V h Z.!.x.",
"1.3.G < ,.U 7.U g 3 i.l L ,.- m 3.3.- , 1 : ,.3 3.4 - < 3.,.w M M * : N s w 4 , g , 1 h a < 1 ,.F S d <.w e l 9 % , , > 4 , > > : > , < 3 3 1 1 2 q * 9 ,.< = 0 p ,.3 1.% , , 1 4 ,.j s 9 - 4 f N w & ,.5 5 5 5 1 h ,.<.1., 3 ,.,.4 ,.1 t 0 w <.% @ - 2 <.3 g h ",
"Q 5.N w ,.~ i.~ Z 1.k.+.i.1 p = n K N 9.B 4 S m w N z C V 2 z ) ) z : i.! J $ * 5.J e.R 5.K s h 9.+.J d 9.N.;.v 1 e N 9 q F M d % 8 Y i.! 0.0.7 N K.P./.A V g.g.! 2 l 9./ / Q R N 2 V +.+.z 4 +.+./ w - z W W R 6.Q d p 0.6.9.9.9.J 0 N P.uXx., P u.! w 1 V K 5.",
"%X1XkXB 3.uXH.|.K Z &Xb sXg B z.8XZXDX8XD.3.~ !.:X:XP.Q.Y 4 K...*.W m $X%.,Xp M 5XCX.X].%X5XN F HXXXiXZ B.G.x v.> w.:X}.fXfX).N 2 u.9XXX&XDXrXB R m.c 1X3.Q 2X[.,Xj q.ZX2X%X.XGXvXa B.OX[./ - P.y %.E w ~.1X}.%X7XwXs s wXJXVXfXfX^.s q.[.c lX, _. Xn.V p `.CX9X",
"k o DX5.g dX[.kX7.8.kX. 1Xd n lX+X` } +Xj., l.DXX... .3X9.> ).v n.Q s I.&.8Xn N dX&.7 8 %.dXN F 0X[.iX= +.=.v >X# W NXX O X DXn 2 x.OXX y .X~.m 5. Xc &XA l P.:.aXZ E KX` f 6 }.Z., f.OX%./ p I.x x / & c. Xo . O.uX= s hX:.8 o MXY.$ u. . .B.2 l. X]./ & z.OXX ",
"0 F.iXS 7.ZX9XZ.g N 4X%.F.V q `.<XX x <XA.3 f.%X. 6 &.).n R b.O.z.9 w B =XVXE > u.qX6 P 2Xw.g u.GX$XI q P #X} &X- M z.].6 y fXV ,.d.[.v b.3X0.a N.&.%XR r q V 1XDXL = E. XU v ,XN p Q.FXZ.@ 7 ! J.X R.- q I.[ 9  .zX0 = `.] 7  .KXL - iXo &X7 N q N.FXB.a R $XX ",
"o *XB , /.BX-XN a.Z.L &X#.!.s 0.lXF.] ].e.g k.2Xo XX#Xu.A v.#.M.E / k.* +.%X;X@ I !.$.].iXw I 8XqX/ N tX~ Y b.[ u.@ 9.gX=.c fXK 2 l.2X%.VXE.F 7.%Xb.E.* N.v.s z.nX-Xg 6.8XX.[.;Xh u.BX8XB 9.Q.l u.&.].B < w.J.%.F.pXp - xXO.&.JXA.< Y 1XXXl.4.xXF l &X7XQ , / XX",
"BX(.a F 8XJX0.U >X#XB u.].m.0.@ W K.}.1X5.> i.VX0XK.+.a s..X%.9.I *Xn.F l HXVXQ 3 9.VX0X5.1.E.FXZXE x..X@Xq ( } J.V = J f.0X=XR & d.qXlX9.f 7.v.#.=Xn W -.%Xs R 0XCXa.< (.BX5XN U :XBX( = ;. .( n ;.] P.= q Q lXfXzXw s R.6XhXq.s N @X .$XZ uX#.I.$ N.qXiXp q uX",
"dXV a !.FX>Xd B }.` S.R &XX.}.J = F T f.V 1.J z.f.B < e.8X#.P.L u. .F./ 3.B.DXV.S m Y.(.a R fXCXa.3.k. X%.k.M v.] :XF - e Y / l , Y +.V Z e.L.=.@.a.R P.o qXI < ^.CXN.p 7 pXj.% +.AXL.# = L.X O.V Y n.] -Xn d V / w.= w w.W L j F $X:.0X6.R n.` uX- e *XCX0.> i.",
"Q j B.JX|.~ a - @._ *.~ Y m.&.O.B.n = d 1 <.a g g p l.%X .1XW L XX .W.d @ 8.-XnXS.g z q A ,XUXf.a p D !.] XXB B &X .*.W w - $ - ,.< - - a.VX&.}.f.N B.c F.a.a $ w V.FXi.& V 0 e 8X7X5., # M -.x C.e u.[.%.|.u.3.3 < ,.,.g 1 s i.fXX.nXZ.F I.X .XN a , ( BX:X= n ",
", E gXNX9.d W e N v.' &Xq T @.=.O.;.!.x.u.- Y iX!.@X&.G.$XY n L.o.}.7.9 K p i.HXsX5.5 % i.VXHXM > Q n K m.o.V.e W v.F...V.v.p.l p u.B.L.<X:.@Xk.I ! n.6 aXg l ~ < j.ZXLXM 4 D R.BX~.- e J @ +.y ..( 7 ! .X$.[.:X:Xg.z l ).;XkX+X{ =X/ N /.%.[ /.< A.E s dXFX(.> ",
"~ xXJX$Xf ~ rXw.w g...b @.B L v.I.F.x v 8X9 N.[ x _ |.l.w l &X' v >X3 / !.E < z.0X8Xh.d.LXnX(.h 7.~.u.a ;Xo.b P.L M N.*X&.....v.N P.T O =.-XR ~ f.*.v ..u.- Y.R.V - E.FX,X! K.BXZXF , c.wXq 4.XXu O.f.M W 5X=.` x O.E Q OX8 ] ].).I N W.*.u XX4.I iXE.h q.KXKXZ.",
"+XF.FXR a f.$XY q W Q.b t %.+.B R k.m.#.I.q N.:.n.,X9 s /.n.v P ZXL G P zXE.s L |.%.%.-.<X,XN j Z.uXW F B I.x v M./ M E f.G.=.@XM #Xb.n.@.e T M.O.l O.) z w Z.5Xh.a S &X` <X:.1Xu.$ Y -XY.6 V J m.t  .#X! I 9.v.XX X7.5.XX*.Q.B 9 ~ m.b t .XW F M x.-XJ < _.[.-.",
"U F.;Xh Y uXl.e ;.O.T @.%. .[ O.k.e T ( 9.= Y / Q 9 ! *X] _ F.dXR @X*Xp u.>XV a +.n.6 P %XF < B uXl.n v.C.J ;Xm.] ` V./ L +.k.! s 9.+.+.P P.O. .@.M.u.Y m.u.M c.aXl., z.O.t v Q.= 0 ^.!.q 7...W +.%X] o XX;XB 9 u.a.s * 9.9.q W $XO.o b.|.( T ..V 7 ;XU.s E 8X' ",
"v &XV g rX5XB F W @.R s V C.} O.@XB < g d 4 > = < = ;X:.G.>X7.s m %XeXG l pX;X7 4.;X&.*.i.s q tXrXl m T.L.^ g n g.%.+X,Xf A g d <.< g h V sXO.g.W S w u.@.0.~ J uXE.m 0.|.o n.R 3 k.kXW   8.B.! > G a.%XXXqX( = = 3 ,.2 3.D < k.nX%.L.~ w m f.f.E w l.gXW , z.F.",
" X~., W 8XQ.M W.a.* e V q w T o.L * c.Q.u.d 9.=X~.n = 0.K.A s Y e M G 9XE x.<X! - +.0X@XW $ Q FXwXM NXV f l 9.w 0 l.i.s w /.lXl.s A.dXT.q k.M.6.0 B B q e +.+.J dX&XF 3.-X%X;Xs V xX|.M T -Xn 9 y.0.j V x.E = ) 5X!.F l uX$XF 0 6.u.*   z z q 7 M.+.i.VX_.w S uX",
"5Xm @ ^.oXdX6 l e / z.-X9.8 , N Y g..X>.P.0 +.[.} |./ m ,.7 r.uX>X9.e L t !.+XL.* @ f.k.$ W aX6XZ.8 I 7 Y pXlX~ 9 > D i.$X%.F.+.N ;X ..XS.K F s l c.v.Y.R L 9 ( ZX7Xh.s E `.F < R.GXJXK 7 R P j.HX(.Y 3 - R +.oX] %Xw R <Xy *Xd.V d & l Y.J.W e z e i.AX0XQ , k.",
"/ : l 7X_ |.z.q.~.:X;XW = - Y g.6XFXAX1X;X* / HXqXFXmXlX9.- s W cXHXR.j.+.|.x -.W # 7 V p E.+X_ ZXZ.k.u.J.U.~ - $ B -XBXGXNXqXz.0 Z.sXNXVX|.l.Z > R ~.5XhX'.E.lX&.{ gX7.D i.- T dX} -.hXa.wX!.dXR.V , w J 8X0XCXoXQ.l R 5X.XIXFXkXw.p - B R.uXxXx.Y.:X:.=.;Xn p ",
": * z.-.# y 1XAXkXR.4., F z.JXUXDX;XR F F ,.; m G i.ZXPXCX_.C 1 F k.5XCX-.x t ..*XB 1 2 J L.x a ` nX9X:X/ # > w `.0XBXsXy.5.G A <.< d ~ ,XJXDX$XR A 3.Y _.VXnX&.6 ^ 9XR.s 3.N I.].6 8 F.BXZXwXW Z a Y 8X2XAX$X9.z F 2 ,.S F i.dX6X1XW.N g A a.Q.0X{. .e v oXA.: ",
",.0.1Xc 6 &.AX!.W g p y.sXGXDXf.q 3.m N 7 : q ^ q , 9 k.7XPXLXa.m h ! !.qX#.y v n.wX0 w ;X%.y ' [.ZXz.Y > * ( ZXPXZXz.n > s S t 5 q q = G k.ZXFXVXk.G > s i.>X1X .y  .qX7.2 / VXy u &.BX).9.g < 4.E.0X2X:Xz.F = q l - h l 9 > q u.HXqXXXY.U , n d.I.[.x 8 x sXF ",
", h.1X&.<X,X/ N = R N.JXFX`.V % N 7.vXhXA.$ j.LXjXq.* % z -XKXPX-XR p G +.,X3XG.n.tXs V ;X&.$.VX_.W < a R M.6XVX).~ , * / lXHXw., A.aXrXM a 7.B.sX9XVXR.m > n Z.-X].:.sXT., d.1XF. XaX9.s 2 E d.3XPX>X/ N g q / Q.rX= G iXlXj.q g z _.0X0X:XZ.w < P K.kXMX{ FX5.",
"4 A.HX-X( M - q d.@X{.ZXA.p p ~ !.VX%X1Xk.- a.nX] 9XK.W p d i.JXF.&XR.N Z 0 4.E.`.A.0 8.zXlX;Xi.A < R ;X}.#.1Xd.w * B ;X1X&.mX! > Z.MXF.:X( M % E ,X1X+X:X/ d h N A.S.k.K , a.xXzXw.l , S k.sX.X%X_.N @ F 5.&XG.#.5X9 F lXO.n.uXQ w 3.W g.6Xn.dX~ s < W ^.dXLX5.",
",.S U w > * Y -X].P *.yXd E wXZXn.o.^ $.wX, ~ -.. 6 =.7X^.B s x.*.P b.fXl.w 2 d d Z 3 1 s E U 1.N T.NX[ u F.u.m B d.fX:.6 6  XW 2 ^.:.f ...XuX0.7 e.#X' o.nX>XQ d ,.s @ @ 5 d d p > < / lX1X....@Xw @ W uX].' w v uXm s uX. 7 } 6X~.K d R 0Xv ..0X`.V < g G G 9 ",
"5 0 0 @ $ = 9.=XF.6 [ pX> E '.8XXXu a $.'., 9.-.6 t [.VXx.Y % f.=.e [ V.6.N 3 7.6.e.4 , 9 = = 2 V iX|.] 6  Xl.3 L E.HX[.8 6 .X9.1.wX&.# x ].>X9.7 E @X' @.m.~.e.0 < 6.4.F , s s w g < c.SX2X8 y :X= = / L.=.' # y z.d s sXX 9 _ CXjXQ a Z ZX8 ..2X;X5., a p s p ",
": A.rX~.Q d 3 V ~.@X#.JX0.g d 9.-X9X%.[.wX1 T -.b }.Q.d.B A R 7X.X}.Z.F h d ~ R.uXcXG U eXz.wXK s 8.p.V.M.&.sXQ < m l.;X<XO.+XQ % iXOX:.7Xx.n > s K.1XH.,XQ s A 6.E.hXHXeX, 5.hXlX^.n 2 d k.sX=.%XB.  = * W 8X#.O.Q.s w ;XO.G.kX~.V < N rXXX-.-XR = < l Y.;XpXQ ",
"1 Y.AX .VX_.9.0 s ! N.CX0X;X5.g m l.$XZXT.% 9.@XN.B.E d e Z.kX3X,XE s G y./.>X=.:.lXS m lX XXX&Xa.N 0 I k.ZXCXsXj.s , n d.uXgXB 3.^.8XR.l.- - W sXAXsXa.Z p e.R.dXFX&.FXx., n mX$.2XsXw.q % F k.BXBXJ.9.* % z d.hXz.0 N iX&X~.E h D d.kXFX7X+.- , l E.gX+X#.JXV ",
"2 Z.2Xo 8 F.*X'.M - S g.HXPXJX(.4.h 4.~ l 1 e Y I d q 9.|.CX7Xq.g d ~ _.7X{.' y  XR.$ A zXO.y ' ;.-Xa.s g i.,XJXIXP.h.* = l 7 7 : l V m a R I.mXqXg.M > E u.lX6X&.6 y nXw., n sX| y O.2XuXa.= 3 6.R.oXDXI.W s $ 9 w < = e e h 0 / kXPXfXK.z - @ i.-XnX}   o HXR ",
"1 L xX&.a X [.GX5Xa.w , N /.VXUXgXs.N p 0 <.a p w h.aXVXKX:XW s F x.-XBXAX#.N v 3Xu.< 2 Y M.. t O.GXDXlXR d A ~ dX9XFXuXQ w m 3 ,.- G B ~.DXGX.XT # $ z f.:XBX+XX i [.iX9 1 % A.qXu u [.FXFXcX! p p V V.oXBXK.R n S , & = 9 E !.oX0X>XQ - = B R.9XBX&.6 6 <XY.- ",
"E j h.2Xo +XtXh.~.>XpXq.w j J hXCXAX8Xf.h.< p.&XXX0XnXlXf.N s u.iXQ.z.i.'.$X&.<Xx.h ^ B $ u.O. .=Xu.wXuX>XeXU > S l.ZXGXqX7X0X! f ;XkXZXPXUXrXV - M ( Q.-Xx.h./.].o DX9., P w q hXO.G.hXj.(.jXsXh.L > = T 3XDX9X&XQ.B z -X8X0XCX7X+.w > L h.uXiX^.R.8X{ x kXI d ",
"pXg U pXFXlXY N q ~ wX>Xw.r 2 m f.aX].%.f.p @.=.%.P.u.8.a 0 q.,X).R e ^ r i.ZXLX6.g /.z.g q *XBXl.r R l u.bXiXK @ 3.5.R.gX$.F./ s @X{ 9X-XQ d 3 8 q.:Xz.z r 7 7 $XAX`.- N hXa., w.JXPX5.t N B T.lXwXB $ = z Z.*Xx }.N L 0X#.0X~.V p 3 v wXHXZ.L V r Y 9XGXT.1.~ ",
"NXl., l.DXuXL #X! r e B B m i.9.G i.-X@XrX% u.Q.k.n V l.i.- M 9.l M 7.%XY (.NXR.< q.3X%X~ > Z.7Xa.I %XS U k.x.M $ e.E n Q _.;XY s pXaXi.* F k.+.q e Y 6 9 k.@Xe xX8XB 3 _.nXgXN s pXJXe.E.gXs 0 z B @ M v.6.s Q >XrXn L hXlXu.w E i.m 9 W ~ w 9 W.l.W DXzXs w -X",
"' 8XG Z pXgXR 6.s.v.0.1 F ~.{.-.;XG 3.s.4.,.Z m a I iXn.XX4X8.g R $XD.n 7 R.;XR A iX.. .>X4.p hXu.q Y e.@XG m G E.-..X`.a , j 1 <.< $ < ! *X{ %.N.E d T [ e.n 6.gXA.p R fXx -.k.: w.HXZ.s H N.p.% @ T %X#.oXa.> 3.A , ,.4.3.d /.1X#.L.a.p g f.u.e.w E.7X5.j R.OX",
"d ].`.3 ~ lX(.w W.*.i.P.#.` x n.p.n G e.E h Q i.! M y.M.#.X.m.W.! v.V.S 9.5XZ.d s.2Xv P 3X!.d d.$XQ = $XM.V /.M...%.$XW M i.9.~ A a.i.~ z ( b o  .O.;.l [ ;.q f.v.n d -XG.S x *Xn - wXxXl e.&.s.+.V. .y m.tX~ R x.f.w F i.E q 9.aX=.o [ V.T W O.5.M rXwX0 E ZXv ",
"<X:.VX5.1.R.jXR r B @X*.v H.R.G M f.L.*.:XS $X[..XW.l V B.@XT v @X6.S I _.`.4.s 8XOX X-.O.*XN F wXK.n E W W.T @.XXB.m W I.[.XX!.L >XO.|.y.9 M Q.%.e b g.z = Q @Xq.$ ! FX&.<X&.{._.4 Y HXvX9 S i.1X  b V.~ U i.sXG.+XR W <X-.#XE f W V.v e b.T l r Y.,XN A p.+X&.",
"R.hXUX;Xd E iX9.9 v.X.T @Xi.V B.sX-.o y aXM @.....&.fXf.M Y V.' P aX4.R ;X9., i.AX$XW a.fXCXa.< ! !.E D N.o.y uXy.U l.L.} y ..N.P &Xy y %.;.z 9 W O.8 ..u.> A./.N 9 $XFX!.w.l.DXqXR > (.`.q H 2Xt  .-Xq ~ L. X` 8 :.5.Y +Xu } |.!.w L k.[ o.L.m r iXY., y.fXnXK.",
"g ~ lXIX~ , Q V n v.v |.E 6.#X X .3XgXQ.d.w Y i.tX&X]. Xv.y.r aXo.G.~ S 5.d R |.VXR : , i.VX|.w - J F 6.#.v W.I 0.,X=.&.fXsXL.i.f B.P.L.n.#.%.k.B V n.e V.Z z W , E.GX$Xq 1 - d.UXhXj e w.- N.'  .x.0 R.XX} b.>XP.tXF V -X$X&XOX#.&Xi.U !.%.@.k.d q.I d lXFXrXS ",
"7.h f.FXsXm j Z +.O.*.a.l #X&.}.R.F 1 3.& : > 3 h n k.%X{ .X! l %X] v.M 0 - K.CXR.> Y B A Q.1Xx.@ = 4.V.x m.L W %X{ %Xx.E g g , 4 Z A g W $XO.[ #X7 y.%. .+.- , w LXZX9.> 9.0 m hXUXq.2 p V }._ $Xt E.OX} ,X9.< , a ,.,.d 3 S x.NX} }.l.L C.x L.q p , k.0XdXS f ",
"R.w G gXFXE.g y.b.x @.l @.&.|.j.j w B W B - z u.u.V j E m.X.=XL ( ] &.N.1.l.BXgX4.S ^.^.$ W 7XVX7.a @.#. .+.^ L.{ |.0.D w R ( l 1 Y w.Y # Z d.].] f.@ W.o |.R 2 rXFX-X- B hXq., h.IXLXV a 5Xx m.N ! b.:.!.4.d 7 9.a.p d 9.~ e - R >XF.L.V y.....B.% 6.kXGXe.A q.",
"0X9.A i.BXCX0.7.%X|.6.R 1XO.f.Z M ^.ZXkXe.1.B *X.XR.! a 6.&XO.+.s P.2Xi.s 8XGXi.% J BX%XY h $XPXK.w T ].@.N f.F..X6.: V c.*X=Xq > ( <X&Xq.q A +.#..X6.l %X}.M ~ qXDXR 3 wXUXuXM @ dXPX~.$ &X .B.w gX{ uXN 0 5.I.JXcXd s Q.9XiXw.0 E %X%.g.V @. .+.D >XFXkXs a.gX",
"=.-XG D :XJX!.4.x.!.6.@XF.!.F s Z.9X&.=.~ 4 W oXo .X5XT - !.] m.L ~ ^.p u.PXuXp n u.F.-._.0 6.kX0XY s x.W R }.x W.> R uXoXx %Xq : k.=.} =.`.w V L.c ,Xl R./ = >XFX~.1.6.LXo FXT.4 z CXDXN 7.dXs T -.-.T # q.8X=.&.xXs 9 ~.{ -.%Xq.g u.=.%.Y Q Q.E 0.JXZXB H I.<X",
"^ 1Xj.p A.ZXkXe.Z 6.u.OXb.e.N Z.ZX[ b .XA.,.T DXO u +X~.7 Q 1Xx #X7 p E 7X1X5.- ~ oXt 6 1X9.h f.qX&Xl 0 e Q.` |.N t ^.2Xv x DXK < Y.=.6 x 1Xj.> Y F.F.f.s a R.BXlXF d xX[.p y HXV % rXPX`.s q L 8Xo Q.< M :X} e X.lXU 9 ~.} e G.Q.B F #X] #Xe # F K.CX(.0 / J.u ",
"7 #.sXF N lXnX-XF 4.:X..M.m y.&XG.y ] <Xq.& W 7XX X O.HXE G #Xy XXe.7.lXF.@Xm N -X} . 6 $.Q.s ! qX&.z.= T n.8 Q.$ ! fXo . O 9XB : Y.OX. X #.I.M M .Xv 8X3 5.ZX&.;X< e.JX_ 0 y nXwX, x.OX Xc.& -Xx  .T - q.6XX X { uX7.p rXO.8 x 1Xq.- ( { *.l.s x.2X X9.F W.&.8 ",
"%.<XfXV g uX+XJXe.R ]...N.s u.HX0XNXVX8X5.> u.KXNXVXBXkX9.3.P.` -.9.7.ZXMXhXG q aX=.].XX.X$Xq n ZX=.!.A k.=.x N.@ w.*XL.oX1X8XR ,./ VXJXKXJXuXV G }.` $X< h.AX2XE.3./ IX X6X<XGXR.> a.CX+X~.2 lXx &.0.- c.7XZXZXDXpXG 9 ^.JXfXCX*Xc.- ! O.x ~.d K.}.}.Q F ~.mX-.",
"W W ! e ,.l.W.B.U N u.v.Z.0 e 9.! Y M V V % e q.W ! i.! l s u.W.k.I > / u.~ g q / ! Y W y.R 7 $ R.+.h.d W g.L.W > z B B z Y Y l : z J ! 9.9.Y 7 g -Xv.!.g E !.f.7.2 P 0.W R 6.Y Y , V x.i.~ 5 x.P.v.s a B / 9.Y z Y p 0 Y l W ~ J V - l P.p.q.> l / P N d T i.Q ",
"> $ - & ,.s F S > 2 9 9 < ,.: , > , 3 3.,.,.1 2 1.1.1.3 4 , m M f $ 5 = = > 1 : h , : % > 1 5 5 @ 9 @ : 0 w # $ : > , % , & 4 ,.,.@ % , , % 1.2 5 M N N 2 , 9 0 , ,.h 1.% h : 2 , ,., p p > 2.0 9 9 ,.<., , ,.4 % , ,.5 < < ,.> % 2 & - * 0 % 5 0 $ $ , : a 3 , ",
"h.9.e.N ,.u./.^.4.8.R.P.T.g V 5.e.e.w.Z.R , z w.D.T.9.r.6.D f.sX$X~ Z ~.I.Y.d s A.wXwXwX^.A.q 3 l.v.+.= / $X&X( = z W W h.A.e.z 2 W 9.j.s.e.9.M a /.B.rX3.K _.tXj.1 / pXrX^.wXwXT.> R xXuXh.1 cX>XsXw 0 Q A.e.q.c.A.Z = W w.A.W q.K = z I.P.h.d Y.Q.z.z > 0.A.Y.",
"$.].|.B % iX=.qXK d *Xo.B.m T Q.XX-.].fXQ > ! 7X2X<XXXfX9.G L.` %.a.4.|.] gXm L gXnXF.&.{.:X# w n.c :Xs ( ] O v.> T AX=.6X<X0XV , ^.FXmXmX%XaXM , @Xv %XA K 0XF.z.< f.BX$. .:.FXiX> W OX=.E.> dXy #.q.d R.9X.X].nXlXE 0 R.].].n.6Xq.> ~ %.u ,Xh I.n.<XR F I.2X%.",
"@ } >XM $ aX-.5XF 3.ZXy V.G I K.&.X ..}.R < u.ZXX P ] &XV 7.V.[ :XF A K.<X&Xw w zX&.P e -.~.= R 6X]./ $ B }.+ I.- 8 8Xx X c %Xz > c.+Xu y ].Q.M m .Xy I.= z >X+X,X$ 9.*X` , y mXj.2 +.AXkX0.4 Z.%.&.R.< z.2X] o. .:X4.= wXb.e o mXw.3 @.} =.i., i.=X].0.D N.G.6 ",
"8 m.9.= B ZXZXi.G G u.n.&.0.s K.0Xx v n.0.> 9.%XX X.}.~ d l.].*.f.9 N N >XAXq.s l.}.y v .XY g ;.6X-X7 V # u.&.=.E p z.+XX O 9Xz 1 c.OXy O.fX~ a / } n.J w s B KXDXB < l.OXv :.Q.f S SXPXh.d 9.r >X} R.p 9.lX].u  .>XE # x.%.y +XuXN 3.P.x jXf Y = B.2XB.9 ~ I.v ",
"[ g.e s k.FX;X0 /.uXL B.{ v.s I tXfX Xn.W $ i.DX&.9Xh.w 4.&X=.k.n i.>Xs i.CXkXn F ~.OX<Xc.d Y %XBXY l 8X( s aX{ >X> z ).XX$.1XY , Y.CX=.ZX~.0 4.|.#.g.q :X4Xw ).JX/.- 6.dX{.qXE , ^.PXaXn x.NX6.6.}.m.9.3.l.ZX+XF.;Xq # ).F.2XkX/ - B.OXm.4.0.JX~ 6.%X%X5.d k..X",
"b.~ a R J.AX5.Z P.G.! L %X} u.a M x.hXaXQ - / 5XSXh.9 d y.O.*.B Y %.=.6.s ,X9XE.h i.kX=XN 3.!.GXI.= u. .;.F ~ [.%.9.> z l.P.5XQ > d.gXuXx.m a K. .&XL ~ ..n.s W CX0XK 3.`.DX`.0 I 7XIXk.s >Xx #XI @X&.%Xs.d i.uXuXcXs F ).kX;XQ h ~ XX#.f.M P.y tXd g.nXN.= w ~.",
"d.N S ;XCX>X4 m &X` L.V K.=.G.!.N - e R r , e Y y.A M h.m.%.+.e V.[ ..N : 0.JX3XE d Y.q.q k.BXkXl & B #.X K.f ~.O.nX~.p d L ~ P 2 l W I h G pXF.*.k.9 M.X I.; - !.mX!.d E T.M A tXAXW.> d 4X ...~ i.3XG.:X9.- s V 4.j q W ~ G - 5.3X&.M.R ! #.[ z.3 V :X1X9.$ 9.",
"L a 0.JXlX7.s p +.-.O.K.w B.OX[ =XJ m d , 5 d d Z L V.#.%.v.I T ..[ ! = 9 > x.nX!.> q w z lXmXw.: X - B.{  .y.w uX$.&.I.! Z A g 5 s A G k.#X-.XXv.r ! x b i.- * z dXJX5.> r > y.KXSXN $ r 6.V.x v.n p.%X{ %X,Xe.A d 2 < w G E ,XXX .8XV ~ v.x W.0 7 - p.ZX,Xm d ",
"a N SXKXB.A 5.J d sXv M.9.B B.}.F.#.@.P.^.p x.|.H.{ #.}.u.n ~ M.v u.p = q.- n Q.ZXe.$ d R.CX|.= 9 eX* d n.9 |.Y 9 x.%X=.F.qX>Xu.7 E.$X.X#.].9Xk.I ~ *.X :X= B Q % a.UX&XL 1 L gXJXT.> / A.s f...T f.l Y >X#.$..X|.!.E 6.@X&XG.#.=.I.~ F B.o...i.s / M A $X6XR.d ",
"^.&XAXlX8.G B.Y.> u.M.P *.;.B W g..X` v L.7 M.x c n./.L M p.M.x o.i.< W ;Xe.> Y nXL.k.#XFXJXQ : A.lXz $ K.b u %Xk.* B :XOX8 y K.M P.v ` b.V.p.I S.V.o.*.y.$ h.rXF h dXCXVXpXHXCX,Xm M iXwXe B M...x b J M B.%X#.v =.R ! b.v &.:Xu.R E 4XT v $Xg W pXE.0 4.HX9XhX",
"%.] ZXu.a s.iX9.U i.f.#X8 [ C.i.I ! $X}.dX9 @.|.M.W q 9.P.X.v }.B.+.L q ~./.S N gXO.b  .[.k.# z bXwX# / ~ K. .v &.&XK f l.&X.X!.N N.}.V.k.6.i.B.@.v M.P.i.S 0.Q.h.- ~ 3Xx X.#.0X6.h Y.HX5.I p.W v.v b H.f.n L >XNX3X5.y.ZX3Xk.L M N.%.v u &XT f.7 / =XQ , x.nX[ ",
"S F.!.3.K !.~.I N.[ i.u.p.%.` b ,XM 4.B 7., F N N L -X].o n.-XZ.P n.@.w Y xXe.d s.&X6 v |.G $ Y.lXV 9 *.n.z p.I.=._ XX~.s 8.4.F ,.D G G ^ -Xm.%.-.C.@.k.v p.f d.Q.5.3.N.b.N m.`.a W pXwX9 9...u.e ( @.] O.M.R $ 3.3.3 1.> D N u.%Xx } ;.L.T f.x B L rX!.7 A uXX.",
"} gXI s /.uX+.6.eXV.L = S B }.].-XS q V N , z K N N W.|.@X~ % % L i.D.0.7 iXiXF D -X%.b.! a W KX^.M T.eXN.= - s x.9X>Xl.= N 7.N ,.n 7.F G sX Xm.p.E f I @.s.~ 9.lXR.s s.=X&.kX4.D ~.kX~ N e.i.W w w F $Xb.f.I V f.9.s G A.7.d 9.m.nXQ.4.d 9 ! Z.e.R 9.VXj.: ! 2X",
"AXE.4 0.3XxX6.B.S.^ l a.E 0 6.R N V ;X%XiX= @.1XI.z m I w = 9.A.E q Y W.w wXUXT.s E :X!.g f rXPXeXV sXm 7 ~ Z.L h G m Z h.HXCXa.d x.L.>XM ~ k.p.N z w.~ l 0.S.y.lXZXe.3.~.HX(.h s.HXZXQ l.i.s ~ Y.9.7 , # 9 6.g..X|.n 7.KX<XZ.* w e.8.V j.9.P E K.i.5.BX5XV $ !.",
"wXs w ).].ZXS.N 7 W ;XiXQ 9 - z z.gX+X[.iXN @.:.-.:XE.R - - Y `.5Xj.z e N wXAXsXE g c.e.3.x. XF.;XR r ~ pXHX^.R d s 9.xXPX{.2X( d iX Xm.v.i.R g 0 W ,XdXA.L z R.7X2X!.S 8.eXF G _.nXNXq.L Y h.xXhX/ * Z B P.%X].#.&XF R 3X&.JX5X9.s 4 l Y.5X`.0.P M Z.6X].l.d V ",
"8 % Y 2X` &.ZXxXdX:X/ Y < a q.kXUX0X5X$Xe.9 y.>X=X7XJX3X9.s d F z.lX-XN.aX%X] F.Z.s f F 7.lX:.y OXHXlXHXxXe.w 3 5.;XIXUXLXuX;X~ d x.@X:X7XVXL.F 0 > q l.uXsXlX*X#.%.%XT.g d 3 y.ZXo  .fX,XuXaX`.B # w P.sXBX%X_./.0.N R `.pXHXUXqXf.7.> Z ( zXlX,X_..Xc c 0XJ , ",
",.l |.$.h y [.FX-XJ @ : Y 5X9XCXdXW - > 5 <.5 Z w W >X7X0XlXs.% - ~ lXfXXXX 7 *.>Xe.1.3.Z.VXu f { PXsX(.F 2 Z z.HXGXJXl.N a A 3 ,.3 S E f.HXFXZXS.y.- w Y R.1XG.. s  .VX7.,.E pXH.p v :.AX;X0.- h 9.$XqXDX=XT * m < : 5 % a S R.fXBXVXl.F , 5.E.HXJX] 7 0 %.`.p ",
"4 Z.].O [ .XsX/ r 1 n ;XPXPXHXc.a a B ( J 1 e Y V 0 d ! uXPXIXrXF > Z f.&Xb.b ' .XE.d 4.rXF.y =.ZX~.5.- g a.HXDX0XuX6.< d 5.V n < R E n = 7.K.ZXBX8Xj.- a N e.lX2X' #.AXZ.3.i.BXo ] nXHXh.M > N R.7X0Xu.9.m d l N.h.w q R Y d g a.,XHXBXkXa.D 1 V wXVX[.o X kX5.",
"4 '.AX&.@X+.e @ 9 u.0XAXHXT s ,.q j.:XCX^.> W 0X8Xl.R d m u.lXIXVXc.V a a.V.@XXXnXpXs 7.xXmX1XiX9.d 3.i.hXDXPX~.~ Z h B `.kXgX7.3.~.7XP.R p > V z.VXBX|.+.M - F T.kX9XZXj.3 +.JX+X=X^.B @ 0 W @XnX|.q.w p E !.L.G.~.s B aXKXpXR $ Z 4.rXFXJXdX9.1 g y.pXBX+XVXV ",
"4 A./.u.z % p l L.%.X =X5.1 f 9.lXoX{ } (.: 9.n.X O.=Xj.l h ^ hX{ F.@XZ.d N i.,X_.A.0 F wX,Xq.Z 2 F S.%XO.b.x.N g n A.ZXXX{ <X0.d ^.{.O.oX~.z - a @.L.o o.L.u.G a Z D.D.7.1 Q r.Y.Q a g l L.O.c M.R = n i.-X1XT + P.= P #Xo #.VX_.V d g A.<X$.nXyX4., - Q ^.u.z ",
",.3 1.- ,.l T.0Xc @ ..I., l vXDXOX8 - O.T., W m.# 9 x %XtXE 4 B.XX0 %.1Xy.N h 3.g ,.,.: 2 ,.<.3.x.5X&.8 I  XQ h Q ~.ZXb.L P <Xe., x.x - v {.v.q.s 4.C.v r =.gXA.m 2 g 3.A 5 4 5 ,.5 D Y.%X#.  8 L.0 p 5.,XBX&.f X hXM 6.,X8 , x 6XsXA.S D LXe t G.LXr.p 4 4 3 > ",
"<.L E E d > B ~.9Xx c :Xn > Q cXDX{ . #.T., K  X+ x ].>X~ d G $X#.b }.`.W d - K 7.R j d 0.0.F 3 3.Z.$XXX.. XZ.< E x.SX Xu u oXe.,.wX .X  .J.x.B - J J.` *.aX0.m A 3.W ~.i.,.l R F s , N / =XO.x &XY m s e.R.m.*.X.lXN 4.>Xo ' ].@X/ V g 7.|.o :.8Xw.s : q K K e ",
"2 Y.JXKXR.z $ - Y Q.].mX-XL 3 g h.Q.MX6XE., J 1Xn.Q./ * , I K.BXXXW.Y p > V y.LXLXcXZ G bXKXHXh.S j F R.ZXnXkX9.A < W K.8XF.&X6.1 ;X+X&Xz.K d = z L.1X&Xk.4.j 7.a.;X3XBXwX: ~ ZXZXz.z s = z !.*X2XkXK.4.g n a.&XfXdXU I gXnXkXY.B , p E aXnXFX;XF : * J ).*X8XJ ",
"2 j.<Xo [.:XA.7 j g ! 5XFXZXz.F 3 n k.zXA.h Q /./ 6.g n B.ZXJX@Xk.w & L x.sX<X` F.xXj 4.dX&.X.CXlX9.d - V ;XVX0XjXQ > d i._.U.E 3 '.-X9.@ - Y $X0XVX/.5.- Z f.~.VX.X_ +XR.1 K 9Xc  .|.k.~ g d R ;.oXDXgX9.s A F j.D.S D T.E.5.a g s.-X1XFX>X6.1.- Q _.qX&.>.ZXz ",
"5 W |.c f _ <XlXA.M 1 S /.7X+X0XZ.w 2 , , ,.: d A d k.gXCX*XR.7 - N R I.oXx 7 ..1X^.h 3.`.XX8 u :.0X;X9.w - i.$XFX9Xz.F , 1 h ,.,.s d - B z.0XmXV.5.* a ~ !.ZX2X .9 y 9X+.3 n -X` t y n.VX!.W g g R ;XJXBXuXk.8.3.h 5 ,.a a , R iXCXAX,X9.g , M E.0X-.y 9 $.xXB ",
"j @ x.=.t c FXDXkX_.a.s d 0.).IXPX5XE.l.4.h B ~ 0.dXCX0XdXR = # V x.@X7XnX} 8 =.dXq j g ~ lX` P OXCXVX5Xl.F - V f.DXCXVX^./ f.V A Q a.k.kXnX*Xx.q s E R.iXsX>XDXF.v =._.s d , / oX. X 2X7X}.Q.Y.6.Z d j.8XCXDXhXW.h.s w A.x.!.kXPXHXi.4.h r q.$XJXZX{.8 X 1Xh.1 ",
"A.3 z 8Xc qX^.a.9.U.dX`.W , m /.KXIXnX2X`.d @.oX2X9XM.p.V ; q ( ).K.T ! i.sXG.ZXQ > k.j.j /.2XXXxXQ Q W ;X;Xj.w > Y tXBXAXOXAX~ F >Xn.oXFXK.B - * / ~.;XU.0.Q 0.kX&.DXu.g T.N M ,X&.}.x.B Y i.:XuXc.M - m !.0XPX[.JX^ E JXMXFXJXzX5.h Z h.;XgX^.~ B d.2XO.g.= N ",
"kXn ; w.9XiXr 0.M 7 Q `.A.e , d I (.3X<X!.0 +. X].g.B 0 d p w.R.d.z e ~ 7 !.IX!.m 4.SXtXd B hXIXj.e J * W Y.z.Q 0 a Z ~ ;X}.<Xi.F gX[.}.k.q I F r A.x.9.z e i.l R.PX_.D 5.VX+.< f.BX%XJ M l t 9.wXA.B d m S R _.n.%XB E ZXG.iX5.p j h l Z.rXq.N Y z B mX7XY < z.",
"=.~.; Y sXxXP B.7.~ S ^ 3.S rX>X9.s 9.~.q.$ ( v.9.q ~ L.I.N - B 8 V n v.l uXDXe.a f.<XXXZ.< k.HXh.Y f.F R   7 = W !./.F E Z.f.L G z.B.V w f.gXk.N m S L @.(.k.E HX,XR A hXF.&XN N !.qXR 9.y.F N r N F k.,X,X5.w i.9.M F (.E.n 4.tXiXk.p m R 4.E B.J T GX`.0 B 7X",
"v -.Y G ~.ZX~ I Z. .+.d ! P.[ ] qXE 1 2 : 5 2 Z m N ;X} c ;.k.F w O.p.7 P pXx.f E &Xv ' >XN s `.jXl ^ C...9 V v.m.#.n.z.0 1.h 2 <.$ 1 3.~ =Xb X.#Xp.i.p.%.B.q ^.HXa.1 i.<Xu b.E.< ! uXw.7 Y *.u.q / #X%.x  X!.d j d ,.: - > > '.2X` %.aX0.f W.XX7.7 Y.lXB - K.b.",
"8 } B.d z ;XZ.I k.+.q V.` x ].K.V ^ rX/.A.f R.L.R.~ F N.H.` x ].v T @.7 i.,XY A k. X....[.W.> V uXQ P ) ~ T -.v ` -.f.B ! $X>X/ V I.K.@.z V u.XXX.*.>Xk.p.W a.xXR.d E ,X .u ] 8XV d h.>XB V o.i.P.%.x O.v.y.U a.-X:XE R ,XK.R 0 x.&X{ . b.R.a.V.E W dXA.s T NXX ",
"I.XX1XR - ( lXs.N o.M.v ..=X! q Z.=X ...f.w V.x X.|.W 7 6.L...v }.+.w e $XB.s R 7X<XkX@XoXJXE a l.>XI w @.*.u %.V.P r k.}. .X.W.q M.y &.|.p.L ~ >X+.x @Xz G U.xXM d P.BX2XSX1XCXR.- R pX~.7 f R.v P }.W n L P..X' [.E 0.F.v 1X;XI L / ].v %.B.N l `._.F E sX6XoX",
"n K.BXQ.Z N `.A.d g.' C.W.i.V K.XX} b.}./.N -X%.O.` 2X$XL M N.%.t v.V R zX~ , E.IXR.s S /.JX!.- M i.e ~ V.u %.k.r 9.,XF._ *.H.R.l L.b  .]  X|.i.I 4X*...P.3.'.e.g i.BXVXZ.s E kX9Xq.j h.wXf W %.e :XE t ! m.x ] -.XXV q.CX%.] F.aX9.L u.;.8 ..I n vX5.3.N.FXsX9.",
"0 z I.oX0.p W V I O...V.M i.P.F.}.aXl.R 4.h n 5.a.iX2X .&Xi.I u... .+.N l m 4.DXoXV d d m -X0Xl.g M w ! b ..R.I f.n.&.%XrXk.0.S 3 V ~ +.!.*.#.3Xi.L @X..}.W q q F I.DX`.s = g R.BXdXs w ^ N -X[ V.6.7.W.}  .:Xz.A.0.p s a.l.&X3X .m.E.5./ *.c K.p ~ s R sXBX9.a ",
"r.q ! 7X@Xm a * @._ m.R y.1XF.P.a.Z a > h <.0 G g h E >X&.1X9.n v. .M.Y g p E.DXi.- K h.g l.0XHXN , ~ m.o g.L p.OX=.,X4.< a A % ,.7 d 1 > 0.&XF.L.~ R -.{ V.g Z ;.CXHXV D w.n S dXCXl.% s i.b.%.+.^ !. ...g.N - > s , : 0 d 3.k.P.F.m.l.L V.x #.Y , 3.R.1X!.s z ",
",Xz p &X|./ d y.=.b y.~ C.#.tXG j L h.wXe.j J cX^.y.d ^ @X] L.~ 6.M.%.V.G 4.SXZX~ = !.&X^ g -XmXz.A u.F.b.Q p.%X%.4XA a i.wX(.B ,.w.wXh.l 3 F 3X .#XM f.&.P.N 9.VXCXK.d / kXT.d 9.JXVXF G Q.} @Xw T n.F.T s s z A.r.d n T.T.B s 7.4XF.@.B V m.c _.> a.DXfXE D f.",
"<X^.0 W fX|.Y L #XP.R V.-.C.4.S l.hXBXkXr.3 6.0X2XlXw.j a.J.#.C.^ p.1XB.F tXJXg.d n VX<X_.g N ZXBXV E 1XW.n L.&.v.s G Y.3X<X8XE , E.CXVXiX9.1.f..Xn.! B &Xz.N U.GX&XF N _.BXkXL < ,XCX;Xf !.}.~ 9 P.] R.d 7 T.%XoXrXp I -XCXZXq.q F @X%.!.s f.-.y.q !.FXk.< W &X",
"x VXB $ g.qXN.w 6.W 6.&X*.i.- k.sX].:.nXD.> 9.*Xo  .VXr.A u.F.n.u.E ~ V 9.VXdXV 9 z.%.H.ZXa., Z.UX!.F 9.V 9.F.XXQ a E.CX .o JXE : A.OXX nXHXB S #X=.W.J Y V 0.VX1XQ - Q 0Xx XX/.= N 8XPXj.F a.I V.O.|.q @ A.&X} x Q.$ V P.O.].:Xq.w ~ .Xm.u.q @.n p.9X=Xq = `.&.",
"$ { /.w e.>XJ.~ 0 V M.&.@.w N !.XXv @.nXe.2 i.FXy 6 F.xXB 7.|.&.|.y.d N I.7Xf.A Q m.L P [.tX- 5.JX3Xj.< R 8Xo V.> Y ,X&.9 y ZXR : A.+X6 v AXwXd a.F.*.k.= N Q..XB.s n g.[ j v VXQ , R.mX-XR g +.%.} u.= z =X%.  ] ;X0 I $X#.8 } &XF G C.#.|.q = Y L.CXE.% J 1X. ",
"O o =Xq 7.f.G.@XG s.%Xo.u.p W 8X2X$.[.1Xr.4 ~ 7X$.X.&.CXJ G &Xu %Xu.G E.%.J.! q v.].6 *.<XdXN 3.LX&.lXA y.-.X W.< T oX] O.} fXB : j.+XO.&.OXuXn G m.v |.< R ]. .+.p T oXO 6 O [.E.- ( 2X{.R.Z L.' *.Q Z ( <X{  .:.R.d R hX[.} &.L.a.s p.' T R.S K.%.F.T @ R. XO ",
"!.V.z.q 8.N.%Xv.4.D.:Xm.k.g 0.pX;XtX,XiX0.,.6.'.~.pX_.~.W Z I.%.XXl.3._.XX8XD l iX8X,XpXhXwXf 3 hX&X-XA 9.XX=.N.> w.zX;XQ.uX'.e : / uXU.uX;XpXB F @X*.W.- e ,X|.W 3 i.sXL.uX$X5XZ.> / 7XZXi.Z &Xb.|.E F (.aXuX;XgXT.p 4.wXdXuXlXz.B @ 6.G.#./ s K.9XfXJ @ Y.hXN.",
"N * = p 2 M B N g 3.5.0.G : a 0 @ - M s g <.a p 0 = a 0 = 2 W W i.E 3 / f.l.3 d 0.9.Z Z S F > <.U w w , s E 7.N 2 w a s = Z - $ ,.s = = = s s - , V N n $ @ w q w : w 5.V N B z n 2 D B E q - B z N j , p d $ d D D > - N F 7.s 0 @ & p N V * ; 7 ~ Y p 1 # 7 q ",
"n w F d ,.M N s h d ~ W i.1 m E 6.6.0 d g <.g 8.G G U F s , B K 5.n : l F A 1 < n w F E E 7.h <.a.~ 9.,.n 9.~ V 4 = p p p * s a <.s 0 w s p g $ ; V B e > * z e * & 7 d * Z 0 9 s 4 p F n d 1.T v k.3.< 5.s.7.s.E d : > 0 s $ N M G < F 6.R q $ z q w - : * p @ ",
"tX$X-XR G Q..XgX7.0.n.b.aX3.z _.L.$XbXpXr.1 9.xX,XuXhXuXq.g g.{.%XQ A K.;.;Xd J uXgX:X$XlXwXM Z HX.XxXa i.=.#.!., W lXiXuX_.pXQ 1.Z.pXhXpXzX^.z w *X .&XZ V m.L.+.& Y iX>XiXlXhX(.- 9.3X&Xa.M g.[ [.a.S vXuXdXjXlXeX= N D.Z.uX-X;XA.9 v {.O.f.s ;.1Xg.V a j.V.P.",
"c  .*Xz 8.v.x |.F E M.v #X3.M P.O.] &.MXh., Y JXc #.:.DXa.j -Xy n.5.7.J.` I.w Y kXO.X y F.lXs F NX&.lXA 9.[.8 ).> Y 0X| :. .7XB 2 E.CX{ O.<XaX8 G }.y M.d Q ]. .rXa ~ PXX ..y 2XiXa h.<XF.Z.N Z.*.#.+.d wXAX&...G.iX@ E >X=. .[.*X/ @ T ] v u.Z u.:.=.z Z rXF.o ",
"d n.-Xq a.KX7X9.p N g.O.*.i.a +.m.. 8 .Xj.2 V VX. 6 n.tXw S %X] M.s d i.6X Xz N v.n.9 r %Xj.> W qX8X0.3.V L.c |.Z q ;XF.7 . %Xz 2 Z.XX6 x 2XY.p ~ =.-.h.@ q R.AXaXp M aX| h y ZXu.2 rXPX-Xz d L |.O.&X7.R LX Xv &.xX- w >X` P &.Q.q 0 L.c @.z ; q dX9Xl.d u.XX7 ",
"` @X0.D Q.FXK.f / +.I V.} =Xd L Q.&.x <XD.,.N JX] } fX5., R.[.XXR W x.s g.mXx.s v =X] c -XG D ,XBXd.s ~.B B ].&.k.% q.*XF.o oXz 2 ~. Xy nX$XB d 5X} v.w Y E r ZX2X/ , j.%XX &.zXA 4.HXFXa.N u.M j.*.].y.w q.0XH.&.lXe.0 iX-.F.:Xj.= q }.%.x.l g.N ) 7X7Xq F Q.&.",
".Xw.d 6.7XqXW V |.-.B B J.&.f.p J 5X9X1Xr.> n *X2XsXY.d l *X$.I.w 5X.XB R BX7XE - ~.CXoXw.1 W BX8Xn 6.nX,XN R.] 7XE 0 W $X=.I.z & Y.1X3XR.Q h +.=.F.9.0.*XtX0 f.FX8XV 0 ;XOXZX~ 1 R.FXlXZ S..Xy.N 5X#.@.7.M ~ aXoXzXF w '.@X>XW w D W.} P.z f.n./ z z.CX~.d f.0X",
"*X4.E v.%Xk.- Y =.o O.r B.] n.6.$ 7 / c.5.> w T.Y.Q > p #X} &XL a.%.%.9.A $XmXL.= R lXrX0 M lXFXZ.h B.:.n.9.e m._ >Xl = V w.d.q : r.h.r.f g W |.` !.N >X_ %XF N kXUXuXh 5.VXwXa I VXIXe.d &X` P.I 9.XX-.V.7.s E A.h.s d t.A.F s 4.P.[.%.T l -...k.- l *XJXM s K.",
"Q g B.fXm.C - q ;. .b / n M.b ..6.> % - < <.> s % > B L.=.XXu.r *Xo |.d h R $XnXW : 0.J & ( BX!.g , R %Xo @XM p.nX&.=Xy.Z d = # 5 w d 3.N p.%X .>Xe W %.c R., > y.VXDXY s r.L > pXUX-Xh < v.&.O.+.q B.-.G.:Xk.G 8.F a , d Z F y.C.#.*.z.P @.` ..n % @ i.VX!.- R ",
"0 G ZX3X6.= ~ M N &X8 @.R B g.} oX$X( 9.C g M 6.+.@.O.} =.N.M K. .#.h.0 z j u.JX8X* > a m ZXPXE < P d B.F.X.,XU /.XXO.F.L.T u.E 1 0.~ B.>XXX .|.E I =Xy m.m q w g j.DXv.p 0 2 e.PXLXN - l n L.` *.i.I !.m.=.}.8Xk.p.N m u.u.V.3X%.%.B.V +.%.T i.p L w < ~.CX5.1 ",
"q K.JXf.s E E.A.d v.v y M.B l ) ;.o c ..v.q k.n.#.] O.I.T f B.O.r :X> 9.(.V A _.PX;Xn s _.IX~.% M wXV p 3Xu b.E.M W ,Xn.`  .F.!.w sX=.#.] =.N.I ~ L.v P W.< A.j.g s 5XCXk.Z 7.kXPXE.2 w.A.9 y.[ P C.~ L W K.%.{ X.OXY K 2X#.X.%.N.~ r l.C.v V.F 5.vXk.3.F JX=XE ",
"ZXmXfX4.8.!.uXY M +.#XT 8 XX+.L / g.b v Q.7 B.b ..8Xu.r z $X .6 m.+.s ~ lXT.d 7.DX2X7XHXOX*XN A Z.gXR a f.}.u *.#X6.N 9.P...[ Q.f ,Xv %.#X0.M +.v.v o.&Xe 0 j.lXK > 9.nX XkXqXFXhXp r pXR.e L V.O.u *.V.~ M ~ ;.C.].R V n.@.L.k.L Y ;.b.o.n.R.q M c.iX~ @ K.mXCX",
"v n.rXs i.rXu.z f.g.T L.v x &.L.i.8 j.I.w.* Y I.R.L N v.-.c y 1X/ u.N.q x.xX6.h `.[.. y [.i., ! SXc.q W./ u.|...` }.4XI r K.V.a.A wXrXj.L s.P. .x  .sXW N.Y M pXwXF p iX_ r o 9X~ : h.sXW E @.i.p.M.[ { XX4Xl V rX;XG n /.rXI 6.N.}. ...P.S.k.M.V q N.K.w N &XX ",
"T |.7.F ~.$XB 6.+.%.+.q J N.%.` 8XV , $ - & > - 3 q ,X=.c -.! F R ].k.w L uX^.0 F dXy ' HXS D ^.!.7 6.B.%.S 7.a.b. .-.!.w < g < ,.3.3.1.W 0Xx #.P.a.s N. .E.= 9.ZXh.h 5.1Xt } R.g N gX'.r a.v.+.9 M N.%.x {.u.d 3.A , , A 3.g /.*X-.@.a.F 9 f.M.s.M 9.&Xy.g /.-.",
"9X(.g ! oXI.P u.0.W G z s - x.).W N +.N.d.0 z N.x.N E K.!.N g M e E 5.#XI '.9XK > i.nX<Xj.4 h.DX^.P W.7.V M I A 7.xXf.N I R.!.T d /.#X~ d Z.>Xf.= p M 9 ! D.!.R xXtXn d R.F.8XR > c.KX9.a.S.4.E M w @ V K.p.B E V.f.7 l ;X-Xa.F s.tX6.d E ~ 5.4.S.j.J fXhX4.S >X",
"-X4.s R. X-XL W L ~ /.v.Y.Y < - E W.*XF.;X$ ! <X1XR.6.s @ @ Q ~.^.l N E.r z.BXhXq S iXlXA L hXPXj.r ! @ ~ E.wXE 0 p D 9.aXmX6Xy.S uX-.%Xw.S d , 7 j.zXE.7 L ! M ).CXE.d V kXR., K sXUXQ 6.y.L l R.Z.B g g S W >X[.HXn B BX[.HXW.7.D , q A.wXl.R 6.5.Q 1X0Xz.< q.",
"r., B 1X{ 3Xl.h./.pXuXz.V 9 B g.DXAXXX].z.@ +.CX=.UXKXuXM j z q.uXjXi.a.9.P.$.6XA., Q 9.,.h.mX[.xXJ 0.R.lXlXw.l $ L iXIXFXH.7X9.d ~.+X2XGXaXZ.S = L ^.Q._.! 0.k.1X .P.l 1 (.G p `.n.MX(.Q 9.k.W.-X/ * $ 6.>XJXCX X>XM M sX].DXJXZX/.8.d G `.>X`.l.W.P.%. .>XE - ",
", 4.Q.O.. X.BXZX5XZ.N d d ! *XCXVX!.9.B l & l 9.x.tXJXCX=Xi.d d ! iXgXAX9X .6 ] gXF 1 j U lX .8 F.*XZXgXd.J g p 9.8XPX0XS.9.R e > B W y.:XCXqX).R g 9 Y _.oXL.].x e F.i.d 0 2 Q 1XX y 9XZX9XW.0.9 a p B.oXGX>Xx.9.E - 0 Q 9.T.tXCXDXiX6.3 d q.!.HXKX+X. . <XR.3.",
",.l.oXX u =.|.-X5.p N Q =XVX1XP.Q * > a = : - h h s a.:XFX*Xz.q $ s d.,XnXo 7 u nX(.j A eX1X8 8 ] DX_.i.q - B !.1XDXK.F > A g > 4 = D 3 d / =X9X0XS.F $ z +.J.O.. 9 c fXQ 4 w hX%.t . :.FX_.M a N +.@XDX0XE.w g s d 2 5 p a d s k.8XPXgX~.s > N Z.fX%.u v x sX~ ",
", D.[.#.qXhXA.Z A I +.fXCXsXi.s < B x.~.q., J `.Y.N , 4.x.sX0X=Xa.s - L y.I.%._ #.pXs S iX$.] BXdXE.B > w / 3XCXP.5.> A i.R.`.W % / ;Xk.V < * 9.*XnX&XB = - T d.3X[.O XXT.,.E LX_  .].!./ d , y.@XBX*Xx.z > w l.R.w.t N vXW.u.F 1 B _.ZXCX#Xa.G 0 a._.%Xm.} ZX0.",
"1 q.ZX>XZ.n d F +.,XF.1Xf.4.$ V d.$XnX6Xh.j i.qX X:XA.N g E uXFX9XP.W 0 s l ) =XJX;X0 Z bXCXJX'.V 3 = W ,X2X7Xl.w , ^ R.:X{.CX9., g.[..XL.+.z = V ;X2X Xf.z > m ~ rX3X7Xh.2 F :XfX>Xi.n 2 S l.oXCX&XE < h ~ !.NX.XQ.Z G SX-.8XjXu.A p s.8XAXL.-Xi.A s e.;X=X>XL ",
"5 M G m $ > a.P.-.x ] !.w g 6.!.oX%.y %.wXg k. Xy  .1X~.e.p D -X:.c -.;.V d - B ~ Q p d q.a.a.h d Y ).#.] -./ > m j.aX Xu y nX0.: '._ 6  .9X).B $ U $Xo b %X~.E 3 s ~ ~ L 1 e Y 9.z , Z A.ZX%.x 3XK 1 R ~.qX&.y ` xXF U hXO t F.fXK.M , x.1Xy n.VXh.g > m G G m "
};
