/* XPM */
static char *b203001ae41d47a5cf384dde895d62bcxF7Eac2AftcWmWPj[] = {
/* columns rows colors chars-per-pixel */
"32 32 8 1 ",
"  c #773A17",
". c #8A4F2E",
"X c #7D4626",
"o c #935736",
"O c #A36C4D",
"+ c #B78367",
"@ c #864C2A",
"# c white",
/* pixels */
"      ......           .......XX",
" oOOOOOOOO OOOOOOO.OOOOOOOO +++O",
" ooOOOOOOO OOOOOoo.OOOOOOOO ooOO",
" ooooooooo ooooooo.OOOOOOOO oooo",
"                                ",
"OO.OOOOO.oooo OOOOOOOOOOO.++++OO",
"oo.OOOOO.oooo OOOOOoooooo.oooooo",
"oo.OOOOO.oooo ooooooooooo.oooooo",
"...       ..........     .......",
"OOOOOO@oOOOOOOOOOOO.oo OOOOOO OO",
"OOOOoo@oooOOOOOOOOO.oo OOOOOO OO",
"oooooo@oooooooooooo.oo oooooo oo",
"                                ",
"OOo OOOOOO +++O+OO OOOOOOOO OOOO",
"ooo OOOOOO OOOOOOO OOOOOOOO OOOO",
"ooo OOOOOO oooOOoo OOOOoooo oooo",
"                   ..........XXX",
"OOOOOOO OOOOOO OOOOOo.OOOOOOOOO.",
"OOOOOOO oOOOOo OOOOoo.OOOOOOooo.",
"OOOOOOO oooooo Oooooo.ooooooooo.",
"   .........                    ",
"+O ++++O+OOOO.OOOOOOOOOOOOO.++++",
"Oo oOOOOOOOoo.OOOOOOOOOOooo.oooO",
"oo oooooOoooo.OOOOOOOOOoooo.oooo",
"             .............      ",
" OOOOOOO.OOOOOOOOOO OOOOOOO OOOo",
" OOOOOOO.oooOOOOOOO OOOOOOO Oooo",
" OOOOOOO.oooooooooo OOOOOoo oooo",
"                                ",
"OOO OOOOOOOO.OOOOOOOOO ++OO+O.OO",
"OOo OOOOOOOO.OOOOOOOoo oooooo.OO",
"ooo oooooooo.OOOoooooo oooooo.Oo"
};
