/* XPM */
static char *b106d0f1dde14c52cc8c722d9f6f97060s5Qu4CapdMAF8dy[] = {
/* columns rows colors chars-per-pixel */
"32 32 24 1 ",
"  c #575F65",
". c #474D4D",
"X c #595F61",
"o c #4C5252",
"O c #54595B",
"+ c #3B4949",
"@ c #62696B",
"# c #6E767B",
"$ c #676E71",
"% c #6F757A",
"& c #737880",
"* c #6A7275",
"= c #686F74",
"- c #5A6161",
"; c #72787E",
": c #555D5D",
"> c #626B6F",
", c #505454",
"< c #5B6060",
"1 c #A0A2A5",
"2 c #939699",
"3 c #7D8282",
"4 c #717777",
"5 c white",
/* pixels */
" ..XoXoXoOoXoXoX.O.O.O.O.O.O.O.+",
"@#@#$%$&$O$#@#@#@#@#$&$O@#@#$#@#",
"#@#@#*#@&.#@#@#@#@#@#@&.#@#@#$#@",
"@#@#@#*#@O@#@#@#@#@#@#@X@#@#$#$#",
"#@#@#@#@=.=@#@#@#@#@#@=o=-#@#@#@",
"@#@#@;@=-O-=@#@#@#@#@=-X:=-=@#@#",
"=-=-=@=-=.>-=-=-=-=-=->.>:=-=-=-",
"@#@#@;@=-O-=@#@#@#@#@=-X:=-=@#@#",
"=-=-=@=-=.>-=-=-=-=-=->.>:=-=-=-",
"-=-=:=->:O:>:=-=-=-=:>:O:>:>:=-=",
">:>:>:>:>.>:>:>:>:>:>:>.>:>:>:>:",
" ..XoXoXoOoXoXoX.O.O.O.O.O.O.O.+",
"@#@#@#@#@#@#@#@&O&@#@#@#@#@#@#@#",
"#@#@#@#@#@#@#@&$.$&@#@#@#@#@&@#@",
"$&$&$&$&$&$&$&$&O&$&@#@#@#@#$&$&",
"&$&$&$&$&$&$&$&$.$&$&$&$&$&$&$&$",
"@#@#@#@#@#@#@#@&.&@#@#@#@#@#@#@#",
"#@#@#@#@#@#@#@#@O@#@#@#@#@#@#@#@",
"@#@#@#@#@#@#@#@#.#@#@#@#@#@#@#@#",
"#@#-#@#@#@#@#@=-O-=-=@#@#@=-=-#@",
"-#@=-=-#@#@=-=-=.=-=-=-=-=-=-=-=",
",,,,,,<<<<<<,<<<<<<,,,,,,,,,,,,,",
",11111111,1111111111111,1111111,",
",11222222,1122222222221,1222221,",
"<12222222,1222222222222,3222223,",
"<32222223,1222222222222,3222223,",
",32222223,3222222222222<3322233,",
",33222233,3333222222223<3333333,",
"<43322334<4433333333333<4333334,",
"<44333344<4443333333334<4433344,",
"<44444444<4444444444444<4444444,",
"<<<<<<<,,,,,,,,,,,,,,,,,,,,,,,,,"
};
