/* XPM */
static char *_47ad389f88a4d2cdd0f5acf4be36600uiUFL4Xsqe2iwD1l[] = {
/* columns rows colors chars-per-pixel */
"128 128 256 2 ",
"   c #3E302A",
".  c #46342E",
"X  c #4C3B33",
"o  c #493832",
"O  c #533C35",
"+  c #563D37",
"@  c #46322C",
"#  c #58443A",
"$  c #4F4539",
"%  c #66483B",
"&  c #774A3C",
"*  c #77513C",
"=  c #5A4A45",
"-  c #5E534C",
";  c #674C43",
":  c #764E42",
">  c #66544A",
",  c #785546",
"<  c #685A55",
"1  c #775B54",
"2  c #796459",
"3  c #716455",
"4  c #766963",
"5  c #746B67",
"6  c #8A523D",
"7  c #915E3F",
"8  c #8C5B45",
"9  c #885847",
"0  c #935C45",
"q  c #935D4A",
"w  c #9B5D4A",
"e  c #995945",
"r  c #8B5B50",
"t  c #A45C4A",
"y  c #B15E4D",
"u  c #8C6549",
"i  c #94634B",
"p  c #9C644C",
"a  c #956B4B",
"s  c #9C6B4C",
"d  c #966645",
"f  c #9B724C",
"g  c #886557",
"h  c #9C6552",
"j  c #9D6B52",
"k  c #966956",
"l  c #9C7352",
"z  c #987557",
"x  c #8A7456",
"c  c #A3644D",
"v  c #A36B4D",
"b  c #AA674D",
"n  c #A6744D",
"m  c #A46651",
"M  c #AB6552",
"N  c #A46B53",
"B  c #AC6C54",
"V  c #AC6E59",
"C  c #A46C5B",
"Z  c #B36C55",
"A  c #B46D59",
"S  c #B86B55",
"D  c #A47353",
"F  c #AB7354",
"G  c #AB7B55",
"H  c #AD735B",
"J  c #AC7C5B",
"K  c #A47859",
"L  c #B37355",
"P  c #B4735B",
"I  c #BB745C",
"U  c #B47B5B",
"Y  c #BB7B5C",
"T  c #B77855",
"R  c #B46B4E",
"E  c #876C63",
"W  c #997666",
"Q  c #8E766E",
"!  c #A87966",
"~  c #BC7562",
"^  c #B47A63",
"/  c #BC7B63",
"(  c #B67A68",
")  c #AD786D",
"_  c #C2745C",
"`  c #C37A5D",
"'  c #C8775A",
"]  c #C77059",
"[  c #C47C63",
"{  c #CB7C64",
"}  c #C57A66",
"|  c #D37D64",
" . c #C57F72",
".. c #AB825A",
"X. c #B4825C",
"o. c #BB835C",
"O. c #B78659",
"+. c #B5955D",
"@. c #968477",
"#. c #AB8467",
"$. c #BC8363",
"%. c #BD826B",
"&. c #B68767",
"*. c #BA9369",
"=. c #AA8778",
"-. c #B98876",
";. c #B99478",
":. c #AA9672",
">. c #B4A178",
",. c #C5865C",
"<. c #D48B5C",
"1. c #C48364",
"2. c #CB8265",
"3. c #C4836C",
"4. c #CB836B",
"5. c #CB8B6C",
"6. c #C68B66",
"7. c #D2846B",
"8. c #D88868",
"9. c #C99469",
"0. c #D7976A",
"q. c #C48472",
"w. c #CB8672",
"e. c #C48A74",
"r. c #CB8B74",
"t. c #CB8D7A",
"y. c #C58C7A",
"u. c #D38B74",
"i. c #D58B77",
"p. c #CC937C",
"a. c #C89578",
"s. c #D4937C",
"d. c #D89778",
"f. c #E38A6A",
"g. c #E6966B",
"h. c #E79777",
"j. c #EC9277",
"k. c #D9A578",
"l. c #CFAC75",
"z. c #E7A578",
"x. c #F1AE77",
"c. c #E2835F",
"v. c #998C85",
"b. c #B89787",
"n. c #AE948A",
"m. c #B7A898",
"M. c #B4A993",
"N. c #BBB2A9",
"B. c #CA8D82",
"V. c #CC9C8B",
"C. c #C89786",
"Z. c #D39483",
"A. c #D49B84",
"S. c #DB9B84",
"D. c #D49C8B",
"F. c #DA9988",
"G. c #C89C93",
"H. c #D59D94",
"J. c #D28F82",
"K. c #E69A85",
"L. c #F49C87",
"P. c #C9A58A",
"I. c #D8A58A",
"U. c #C9A697",
"Y. c #DCAC9B",
"T. c #D7A796",
"R. c #DAB49A",
"E. c #CDB497",
"W. c #E6A689",
"Q. c #F8A786",
"!. c #E9B589",
"~. c #F8B68A",
"^. c #E6AA96",
"/. c #F9AB95",
"(. c #E6B699",
"). c #FAB799",
"_. c #D9ADA3",
"`. c #C7B8A7",
"'. c #DCB2A3",
"]. c #D9B7A9",
"[. c #DABCB2",
"{. c #C8B3AD",
"}. c #E3BBAC",
"|. c #E5B7A5",
" X c #F6BAA6",
".X c #E4BCB3",
"XX c #EAB3AA",
"oX c #F5C991",
"OX c #CAC3AB",
"+X c #D7C5AC",
"@X c #CBC6B7",
"#X c #DCCCB4",
"$X c #D8C7B6",
"%X c #DDD3BB",
"&X c #DBD4B6",
"*X c #D7D4AB",
"=X c #E6C6A9",
"-X c #FAC7A7",
";X c #E3C3B5",
":X c #E6C9B9",
">X c #F9C8B7",
",X c #E3D4BB",
"<X c #E4DABD",
"1X c #EADBBD",
"2X c #E7D3B7",
"3X c #FBD7B8",
"4X c #F7D6A9",
"5X c #F9EAB5",
"6X c #EDDB90",
"7X c #D9CBC5",
"8X c #DCD5C6",
"9X c #D4D2CF",
"0X c #E4CCC2",
"qX c #E9CBC4",
"wX c #F9CCC3",
"eX c #E5D3C4",
"rX c #E4DAC3",
"tX c #EADDC3",
"yX c #E5DCCB",
"uX c #EADCCC",
"iX c #E9D4C9",
"pX c #F8D8C8",
"aX c #EBDCD3",
"sX c #ECDED9",
"dX c #E7D9D3",
"fX c #F6DDD4",
"gX c #EDE1C5",
"hX c #ECE2CC",
"jX c #E7E3CB",
"kX c #F6E5CA",
"lX c #ECE3D3",
"zX c #EDE2DC",
"xX c #E9E5D7",
"cX c #F2E4D3",
"vX c #F2E3DC",
"bX c #F3EBDB",
"nX c #FAE8D7",
"mX c #FDF7D9",
"MX c #FFF5C7",
"NX c #ECE7E5",
"BX c #F3E5E1",
"VX c #F5EAE4",
"CX c #FCECE3",
"ZX c #F8EDEA",
"AX c #FCF3E4",
"SX c #FFFCE3",
"DX c #FEF4EB",
"FX c #FFFDEC",
"GX c #F5F1E6",
"HX c #FFFDF4",
"JX c #FFFFFE",
"KX c #FAF4F2",
"LX c #EFF0E2",
"PX c #EEDEE2",
"IX c #C2BFC0",
"UX c #887E81",
/* pixels */
", _ 7.wXs.i.L.K.Z.Q g Q JXLXcXmXJXJXFX+X# + 2 { 7.T.o.I S.S S ~ g @XjXU.P } q b.} c [ i N u p U.d b.b._.BXpXN I Z 0 s.' 2X2X`.X O C I Z D.B _ [ , , : i JXNXuXhXlXtX<X%X= > > -.Y.5.I Y N I | G.C.+XtX#XsXu IX0 ! :XJX{.N.ZXKX0X7 s.Y.r.I / Y I I L 8.~.VXxX=.+ ",
"# : /.nXK.h./.W W Q 7X7XcXlXhX2XDXJXJXJXFXeX> > E .X|.' 7.! 9 , FXAXhX9 [ S.w.! T.M F v c p p -.#.C.qXBXvXaX%.h [ C p S <.tX2X#Xo + % _.b m : O : r bXDXbXlXI.8.h.nXkXhXhX%X< < > I.{ I I q 9 W >X:X:Xm.B.JXj U.0 6 a.}.{.N.ZXDXHX:Xw _ I I 3.I P P _ Q.-XVX%XQ ",
"%X% + ; i r O ; U.FXJX9X,Xp k -.R DXJXHXnXhX%X4 > - Q v.Q v.C :X2XmXH h.L.L. XqX.XS L 3.0 p p j -.G._.zXsXiX|.b.P p w 8 R c.1XtX,X@.O > + % k W FXJXAXbXB p p s.I.g.).g.hXlXrX`.> > 1 9 : : , 2XkX`.h ) h z %.h 9 9 L ! G._.ZXHXZXzXU.j / [ { [ 4.4.{ ^.g.~.uX#X",
"uX8X1 O ; r ( N.OXVXJXT.m c p p -.%.S. Xh.1XgXhX#X# X ; , hXgX2X]., w w c _ F.qXPX|.Z w.p i p s d ].dXBXdXC.H  .p G.j sXdXT.8.R.tX,X#X= 4 : %XuXuXyXh i w H C.u.T.Z.[ T x.(.hXtX&X1 # % , R.1X,XkX! A ~ HXq.K./.#.m P s.&.! 0 6 '.U.^ ( H I A.7.[ _ T.i.8.Q.3XcX",
"DXhXtX,X<X,XhXKXdXq B 4.p B i b m c B 5.F ` f.gXhXtX<X,X<XcX2X9 9 0 t w e Z M 7Xq.[ Z w.w.p i p ! iXVXVXzX_.^ j p ) -.qX.XY.b b I tXhXlX8XrXlXrXz u C.].N -.%.{ ' _ |.H _ h.x.cX1X1X,X,X2X1X1XI.Z. X~  .w q |.d.k.^ W.XXr.` Y P w U.-.c Z I 4.Z.I [ { S.;XT.pXHX",
"j.' AXrXm.+XAXK.wXi.P 4.s s c p p s U B 1.P ,.8.0.bX2X,X2X=X& t w 0 0 w c M S >XI Z m I } p p i C iXVXBXzX}.H r m m C.}.Y.HX( w.~ / +X@XFXSXlX8 C T.[.U.7 e | { { T.y.G Z I c.j.Q.kX2XtX;X:XV i.L.pXf.{ -.w m B { k.I t.T / [ } Z p Z B { 2.s.F.{ [ { F.u.u.| ^.",
"Z W.JX<XFXFXH.JXZXA.P 1.P j l N a N f N U 6.1.G 8.<.hXjX+X& e ( } w 0 8 w p c w.I q.p 3.q.p p D -.s 0XvXuX-.p ! U b V.iXy.r.3.t.K.i.~.KXhX8X9 e ! ].iX$X-.[ { { Z F.b b o.s.I.Y.f.Q.kXtX+X& t e W. .0 0.| .Xq.M r.u./ e.I Y / I I 0 ' ;XY.sXF.A.' { [ ' ;XiX_ _ ",
"S ' d.mXFX[.~.i.NXw.Z F P U i J v p s F T 1.I.s ,.9.hX+X@ 0 t c q.M 0 j 8 w q I aX_ B } Z.c p d s ;.-.s.C.( y.! B P c '.V 6.i.i.W.S.f.uX8XO w e ) U.{.b.-.9 e _ { L b G T _ 9.| ' j.uX:X2 6 7 e S M ~ | /.nXK.B.1._ 3.3.P Z I I s.b { }.dXH.s.{ P { Y R dXzXE.Z.",
"c 2.4XkXFX1 S T.5.].T F P D N K 0 k p v f U $.F D ,.rX#X@ ( 9 m ( q.( -.( m c [ T..Xi G I 0 N p N s v N h.^ -.! V P s ].p [ i.^.>XN R uXrXO b M [.7XNXHXL.FXw._ _ uXF.Z Z ,.{ ` ,.j.1X+Xo t y  .j.u B.p .X XXX} B B I w.I F.^.:XeX' s..Xy.t c w I u.2.I ' K.w 6 ",
"[ ] JX^.rX5 ].NX:XY.~ U P P B p s s i p l 1.9.K F 6.<X#X@ t C.V.H.V.H.y.q.A I qX_ XXI U } 0 s s i s N P 5./.A.#.D V V.U.y.S. XZ.'.aXvXrX8XO [ 8.JXJXdX$X%.T.S j.d.e T T v T ` 6.8.Q.2X:Xo 7 y _ ] y.0 M Y.3.Z.~ Z c b A S _ S Z.Z b _.d.VXvXzXzX:X[ { T.iXf.j.f.",
"` R pX=X%X2 ].T.T ].1.3.Y L D D f f s D a U 6.G :.T 1X&X  ~ H.H.].:X.XZ.P } I s.aXBXZ.P I U i k m i N N 1./. X%.H H V C.U ^.C.~ F.VXCXzX%X# I 4.JXJX7Xn.-.#.M Z j.w.v L ^ B e o.' x.=X<X@ 6 e 3.e 9 8 Z.Z.S M Z 0 w w c N b b B |.|.iXvXaXdXuXdX:X{ V S Z { ( ] ",
"c ] fX,X&X< '.I a.D.:X].I H G X.G G G F G a l K =...I.%Xo 9 B.Y._..X].y.} _ I _ ~ 9XC 8 9 s H i ! s p s P 5.oXU.F U ^ C.Z I.B.-.uXDXCXbXyX, 7._ BXHXJX>XXXV c [ { 9.1.&.uXR.Z T ..0.-X#X> 6 t y t R M w.w.w m M p 8 8 0 0 w b B _ |.cXiXdXuXaXaX].I b c Z Z D e ",
"T !.kXgXrX2 6.P a.A.e.:XU D ^ Y U G l D f K D U K n 9.#X$X# B.XX}..XXXD.B.Y I _ G.Z.pXs.y.} N N z s j D K l h.I.F K L J 6.T.P.9XsXHXCXzX8XW F.7.BXDXDXCXi.>X:Xr.1.S nXpXU.&.G G n T g.+X].% y e R e w.~ M m q 8 p 8 q 0 ^ p p c I I.vXaXlXvXzXzX$X_ b M S A ~ J ",
"Z W.8.1X&XW Y U L v 9.6.U X.U &.p.,.a.o...s K ..D X.nXhX$X@ h .X.X:X^. . .J.}.pXJXfX.XS.( V N u , i D a D m 6.s.N a m U $.>XSXsXaXCXfXlXdXb.D.(.vXVXVXBXZXnX>XJ.^.|.VXHXbX;.Z n L tXnXgX#X= q.y M m } ~ A A N 9 h 0 0 ^ ^ #.V.^ c b }.VXeX:XDXZXeXc L M I L.8.( ",
"9.p +X2X&XR.q.$.T.G Z v Y a.I..XR.].E.6.X.D l &.a G 9.1X#X  . H _.H.Z.B H.3.Y.pXfXy.wXt., X X o o o o O i D ^ h.K.T.&.i z P.JXsXsX7XbX8XQ U.j e {.7XVX9XzXKXKXdXlXvX:X:XwX+.R.#.cXDXJXbX+X= % 6 ] >XB A A I B p q 0 i -.B.E < = o o > C.:XN ].zX:Xc B Z B ' i.8.",
"9.D gX<Xg I.Y.T.sX:XT.u r.1.+X].R.P.E.....J K X.a a 0.9.1XOX  + C ( 9 ) -.D.qX'.7.D.Q Q 1 r rX,X,X%X# X X # u J ^ b.1.W.kX7XsXNX{.m.@X@XnXJXJX XdX{.7X9X9XNXJXKXpX;XXXeX4.R I.N.@XtXDXnX<X+X@ & t ^.m A m c p i w 0 ! # O < Q Q O o # = 2 6 ' P.^ b p B c S [ d.",
"r.hXhX&Xq.'.:X;XdXT.v ) Y ].zXG I.E.&.J X.#.J l u u ,.,.gX&XOX@ o V t.( B.=._.w.C Q g ! lXtXhXtX<XgX1X%X`.o $ # ^ $.i &.>XDX{.sXHXJXJXv.dXsXY.j.pXJXHXHXJXJXVXdX$Xy.o.1XY T yX8XN.M.DXJXbX+X# X 0 j.C 9 m M p 8 -.& > # E hXbXbX=X,X#X@.= = ; -.N p 0 b , V $.p.",
"tXgX2Xb.Z.D.].:XsXI.n 8 s.dXR.J *.E...l l l ! P.l b.#.O.<.hX,X+X@ . ; ( ^. XC., % , ,XtXhXgXh.h.8.8.=XlXhX,X@.O # : j [.b., v.iXJXHX:X0XI 0X.X8.L.JXJXHXNXiXdXaX].%.c n n  XJXAXHX7XiXDXHXgX#XX o r w.C 9 8 9 & # % g tXbXbXbXkXAX1XgX1X%XQ X X # ) p ` -.1 1 k ",
"2XrX=.B._.a.NXqX;XB 2.d A.zX].K #.&.z u u u D a.&.G a s O.<.gXtX#X. o . 1 % E 1 ,XhXtXrXN N ~ Y.s Y 5.-X=XcXtX%X# X X $ % : $XdXzX].=.Y V _ BXQ.mXJXJXKXsXvXpXC.I Y I o.F.FXJXHXbX8XyXvXHXHX1X+X4 # < W u.q.g 1 : ;X:XbXhX_ S.K.pXFX-XkXtX2X,XQ o X O : > , k :X",
"+Xw c Y.Z c B S Z.6 R.a G NXR.D X.K a u u z u a $.J K l D o.<.(.tX<XOXo = 1 E.hXcX2Xz 9 j j Y 3.V s N L g.=XcXCXtX&X# ; k mX@XzX! _.>XB l d 0XqX-Xf.}.aXiXY.} S T Z F S VXDXAXDXxX{.uXyXCXHXCXgX,XpX< < < E 2 ! ;X2X2Xq.%.[ 7.Y.Y.dXnXFXHXbX1XtX#X= . % k eX1X<X",
"M B M Y.~ M S C.;XA.u e.G ].:X+XX.=.W a z u a l f $.U u a G o.8.j.cXhX,X,X,XcX<XE.% q 8 i p ~ w.F h B j j I.nXJXAXuXrXrX<XhXdXn..XpXA.a U 6.:X:XS.R.] vXdX].T T [ I R I.uXHXJXJXZXN.sXaXvXCXDXj.cXSXAX,XE ( pXOX2X}.=.s._ I i.' qX}.T.|.>X X).cX1XtX#XkXuXtX,X8 ",
"c p B.]..Xy.~ B q.c I U d E.$X].E.a W b.u a a z f f a u -.i V U 8.h.(.hXhX+X#X8 N g & 8 m i H / P ) i N ! P.vXHXJXJXAXyX8X].nXJXiXT.a.G K ,.aXR.T.$X' Y.iX].~ T Z S a.;XvXDXSX>XSX9XN.vXVXVX$X8.j.).FXmXAXHXFXxX) 3.} _ I [ s.].iXs.Z.s.A.s.8.z.Q.kXtX#Xm.=.9 w ",
"w c q.~ _.V.T._.T.B.F 6.a.'.R.R.+XP.D u 2 u a l l X.a z T.z 8 B I h.pXkXrX#Xr V 3.-.W 9 N N i H ^ ;.s i ;.].VXBXHXJXCXFXN.=.>X0XT.T.C.$.z Y.iX=XR.#Xu.K.iXuXT.2.A.'.Y.d.'.5.,.,.h.kXZXVXBXDX0X3.8.Q.).xXpX;XP.h P I A N P ' { I.|.7.7.i.Z._ i.I g.Q.FXJXm.& 0 w ",
"w m N Z S Z  .p D._ N a a :XU.'.].E.P.9.E @.J K X.9.l 1.6.P.a.p B L 3XkX#X= C ~ [ -.-.g i N H N H P 0 C V.;X0XsXDXHXAXHXv.b..XqX}.P.A.p.U $Xk.k.+XiXW.8.S.|.tXaXVXVXsX'.E.O.,.1.o.1.I.vX{.>X:Xs.4.j.-X@X2X+X9 B V B c m Z [ i.{ T.u.4.4.S.u.S.{ 8.j.@XmX4 & & & ",
"w w Z ( A / c 8 ~ L N p D P.=XE.].$XE.W.@.m.u J P.*.;.1.Y e.#.i 0 Z h.kXm.@ V ^ y.Y.A.G.! C C P / V p [.b.F uXZXZXKXbXbX4 U.b.'.T.P.Y.E.].p.0.R.;XY.(._ i.sXaXVXvXzXaX:Xy.n n 6.2.6.d.h.K.b.T.T.T.b.cX+XtX#XC P N c B B P I [ [ F.[ Y.u.7.7.7.{ 7.x.rXeXo & , : ",
"0 c Z B P I A q Y Y P D u R.0XiX].+XC.0.:.:.K K a.6.a.F ,.b ! a ! i g.3XSX= ) D.pXwXpXwXy.! ^ V 3.p m V 0 d c |.DXHXbXrX> nXm.D.3.I.T._.C.a.R.P.+X'.L v 9.g.sXvXsXaXdXdXp.s G U ` P P } /.).Y.C.-X XGX~ +X`.p V c N V P V P [ Y [ '.0Xu.u.{ [ / 4.j.hX:XX ^ ) r ",
"p w m m B I B q N Y P s u e.T.$.a.R.E.9.*.f a J U X.6.a.1.b ;.U.0 B 8.3XmX5 F.pXwX>X}.:XD.) ^ P [ N B ~ c N p H fXHXAX8X>  X;.8 / $.:X_.C.r.$Xp.I.2.G G L T :XsXaXuXdX&.s L H X.H Y [ X.Y |.wXXXwX X>XP +X`.h N P P c Z P P / ` Z w Z u.' { I Z { j.`.,X> h ( 9 ",
"p w m B N B M N N H Y e.f F a.&.U '.'.9.$.d a D D H X.Y s.L 0 0 0 ' 7.tXrX1 nXJXt.>XwXF.C.) ( ~ ^ m p P c N K ^ / HXDXyXO w d.!.r.b.'.;XX.U 9.6.6.6.f G b a (.vXvXvXP.V.;.v G X.G 6./ G P s.} pX>X3X X3.;X`.V c p p B c I P P P I ' Z ` { [ [ 2.[ Q.W.gXOX: q.k ",
"w w p m B A } Y m Y Y I.T G $.$.$.a.eXa.X.k i D N d F b T.L F Z p | { kX%XW JXwXt.^.pXF.C.W H [ T.H G.-.m p -.N F fXJXyXv.: P P 5.(.R.b.U X.D 6.X.a n P n s #.O.E.O.I.R.&.D G O.X.$.J ../ ;Xy.m.m.9 T #.1Xm.B I c p p p V V P / Y |.I L B Z ^ [ P Q.Q.#X%Xo p q ",
"p p m B V P P I 3.a.Y H X.U W , : -.eXV.F u L 8 p s v 1.4.L I P N Z I gX%X-.DXnX^.^.^.y.-.W N P Z.4.P B m N s j p ,.3XlX+X+ P y.y.[ -X3XW.T.b.=.,.x 1.6.Y X.G s G ,.a.a.;.9.o.X.&.9.9.6.U P.bXKX-Xh & ;X#Xo I m 8 C 0 q c p V I I |.I P B P P [ I h.oX%X&XX : 8 ",
"q w m A B V I y.A.F F i # # X # X - < Q / V P N d m T I e.r.Z V T 8 ;X,XE I VX>XS.T.D.V.-.) ! m H 4./ / A N N v m ,.z.uX#XX , e.%.Y y.C.>X-X(.&.D u $.X.2 # # $ $ : U.+Xa...O.$.&.9.9.5.tX|.JXs.! e.k ].OX1 B P k 8 0 8 N c P I w.B B V q / H H 5.[ j.gX,X`.o * ",
"8 c m B A Z I y.B p , : % U.1X1X,X#X- - + h Y ` v B e.I e.[ Z B 8 p ,X%Xk I }.qXnXXX]..XC.-.p N P N 7.[ N m P H X.5.h.!.rX@Xo k %./ T.D.:X).CX!.G.D 2 > ; # # # $ # 5 4 =...#.l ;.G 9.Q.SXSXd.^.( 2 ! ,X`.=.y.B 0 0 8 0 p c p 0 w m [ { H q [ / P H f.g.`.#X+ o ",
"o : m ~ P P q.~ , E : <XtXgXgXAXbXcX1X%XO O ; P B y.Y.Y.y.P.2.q i 2X2X=.m 0 T.n.wXfXy.^.U.p V V B H V p p y.c L 6.5.z.h.cX%X3 O r q.].[.[.W.P.U Q 2 , a rXcXhXtXlXyX8X< $ # l f G 9.d.9.0.(.K. XP.k 1XrXE 9 B 9 b.k 0XqX-.c 0 H ^ ( V V [ 3.p N 8 q T x.&XN.+X. ",
"o O % B V P 9 g v.=.<X,X<XI.h.nXFXg.gXgX2XU.# X , U.m..X.X1 g , ,X<XtXh 7.F.fXpX;XqXG.P i -.m N I P 4.p ! '.! i U 6.d.pX~.cX%X> = 2 ].;X3.7.T.4 # n.uX%XhXgXbXcXbXlXbXyXOX$ $ # O.&.9.9.X.O.C.g W +X2XQ b.k 8 8 ! z ].U.b.0 -.K.q.p 7.h.u.u.Q././.Z.H f.~.HXnX#X",
"&Xn.X O X % : P NXOXtXR.N n o.G d _ c.h.bXbX#X> # 4 @.Q Q E =.2X,X2Xw c q w .XXXnXJX[.T.[ N -.[ I 1.s.I 7.u.I.a.G o.U :X).).uXyX$X> < Q k % , m.M.m.@X@X;.#.J *.*.*.a.bXlX8X@.$ $ % K z *.x #.7XbX`.m.{.T.r i 0 8 -.U.G.fX^ / / } V h P A I { 4.Y N -.P d.h.hX<X",
"bX,X%X+ ; W ,XFXJX9X=.v _ n G I d p w 5.nXFXbX2X+XO X > , 2X1X2X:Xq Z m h V A.}.Y.wX[.T.F.B ].q [ Y.i.Z.4.{ p.;.N D Y r.wXpXpXbXaX8X- < 4 : , JXJXFXbX:.P.=X|.>.M.>.].JXDXAXrX%X= < 5 @.x #.SXmXkX[.U.b.1 & 8 i 8 -.[.-.-.C N 7.u.%.( m B I Z [ 2.-.H K.P ` f.).",
"-XcXhXtX<X,X<XbXCXJXyXC.X.,.L L n c c -.:XFXnX`.M.b.M.2X;XgX2X( & S A I B p Y.0XiXwXaXT.[ ^ -./ [ S.i.s.P 4.Z %.j -.D u.A.I.nXnXhXbXrXyX8XhX,XhXSXP.b.;.C.W >.m.:.W M.7XKXJXDXFXSXmX< W AXgXJXHX=.y.D.XX=.W k 8 h 6 U.i N N N r.s.i.h.i.7.[ I 0 L 7.q.,.F U 8.z.",
"h.z.-XhXtXdX$XdXVXDXVXc i 8 d T n c b :XiX$X$XQ.JXkX%X#X+X'.0 w 0 t S I p p s.T.w.W.pX'.7.3.N H [ [ [ u.s.u.V V.].D U 5.p.I.eXh.-X3XcXzXcXhXrXU.K *.e.b.P.M.>.CXM.@.HX7XN.DXJXJXJXJXNXrXmXbXOXC &.! -.F.) ! ! h i 6 n.0 p m } T.^ } / 7.V ) 0 w s v U I [ 6.` F.",
"4.h.g.cXrX8XdXVXVXZXHX3X!.z.u.Z.c Z b eXcXiX:Xy.kX| 1X#XQ 9 w t w w M I } m A ! h B .X[.r.[ N p P P ^ 4.{ T.[ p s N / 5.d.Y.;X1.|.h.z.cXcXyXg &.#.*.*.;.E.E.;.DXm.>.zXJXNXzXsXJXJX9XVXgX<X;.z u %.) w.-.Z.-.w.u q -.=.#.#.B.~ W.CXJX) ' L.i.3.'.dXp L I Y Y u.7.",
"u.0.h.uX%X4 sXBXBXzXJXJX-X~.7.a.,.c c uXJXDX>X'./.{ `.,Xo t t A Z m A I J.I I /.W. .S.dXA.[ H m Z P m P H |.[ / $.G Y 5.S.[ S.d.s. Xx.hXrX$Xa z z a *.U.E.fX;.:.;.tXJXKXsXaXzXaXJXNX@XgX&X9 H &.%.( ( i.t.w.s.s.3.F ) B -.-.Z Z.zXdXdX>Xj.L.4.b =.B N P [ / 2.s.",
"=XW.8.cX8X3 aXsXsXaXaX;XI.i.S.^.S.{ b VXJXVXY.XX8.j.$X`.+ t t M M I } M B m j.K.i.~ -.{.Y.I m ~ N B P Z u.s.[ { 5.Y $.5.1.:XsXT.[ 2.8.=X%X> j ! l J *.E.P.+XP.=X#.z =XDXBXsXaXaXpXJX*XOXn.U m ;.&.&.( i.q.q.^.N I %.b.B y.} D.@XJXJX7XyXy.S I R _.V N I L V B 2.",
"T.|.8.yX%X< iXaXiXdXiX(.s.R.(.:X^.S._ VXHXJXFXs.kXJXJXcXX t t Z ^ C 0 9 I ( I P i.h.pX9X}.7.^ 3.P h P { 3.S.S./ [ U N 6.5.'.I.B U.vX(.I.,X> a K u $.R.P.b.P.;.P.*.+Xb.iXvXBXBXzX].~.FXJX> q V ! C ) h Z -.q.I B B { A M =.j VXHXZXKX9XVXdXy.}.C.i b U I ) &.s Z ",
"T.=X8.rX#XQ iX:XuXaXaX[ A.;X|.:X=X).|.JXJXJXFXuXpX XtX&X@ t M ] q.K.L.( ~ ~ i.7.[ j.>X7X_.{ } | u.I / A.4.D.d.` P U P [ o.|.Y.v KXKX:X1.%X> F j a J ;.R.-XE.R.&.K dXNXsXvXBXVXVXvX0.gXkX> d.k.;.! q 8 m i } 4.B N I I H (.nXZXBXJXKX9XZXzXdXA.I J k 1.v C.&.s f ",
"Y z.0.hX&X@.iX;XaX+XY.U p.|.iXlX;X4.| CXbXvXvXvXDXJXbX,Xo y M A i.| >XK.Z.[ _ 7.} I >X[.A A V i.u.P I.;X}.T.'.i.{ 6.P / 2.;X}.b vXvXs.%.#X3 D l j z ;.;.*.K *.$.K ].zXaXsXzXvXvXDXDX1X&Xo e p F w 0 q q g ^ } I -.N H -.C.VXNXBXJXJXNXVXVXdX/ { K.! B p j K N I ",
"$.0.I.yX#XU.:XeX|.T.G L ,.|.cXBXCXaX8.CXcXvXvXvXvXHXHXrX= : _ V M Y.t c A M [ { _ | f.f.7.Z.y.C P ! 0XiX0X0Xs.Y.5.5.[ H 2.Y.` c p 0 B lXrXX K N u J &.#.K $.#.J X.].yXaXaXaXsXsXvXJXFX&X< 6 p v m c P q.( p P ~ -.P q -.].ZXDXNXZXNXZXVXVXzX].2./.y.^ a E.! ^ H ",
"X.H #.%X8XuXaXaXU.r.1.o.P T.`.{.N.(.[ (.vXcXvXvXcXFXJXlX+X+ _ ! M _.S M M S S i.I } { I /.qX>XL.Q. X^.aXiX0X}.;XT.1.6.4.1.2.5.Y.[ h.H rX%X% p U ;.K &.&.J J z X.X.=.zXaXaXdXdXaXzXJXJXlX$X% c M m p L ( p m h B A B ( C.[.$XZXJXJXKXzXBXZXBXsX-XS.-.H =.$X`.G J ",
"6.U uXrXv.aXaXdXaXU U K $.U.xXd.yXtXB ` vXvXfXiXiXCXJXlX%Xo V ~ ~ q..XZ S S A F.I _ f.K.L.F.=.E 1 g ( 7.(.4.7.Y.i.{ u.1.4.u.{ u.4.i.U rX%Xa U z 3.r.6.....#...a.*.;.zXaXyXdXyXaXsXJXJXxXOXo c R ( T 3.A m p m P m c $X-.h @.5 5 5 5 n.NXVXBXxX8.!.P.+X7XN.7X+XJ ",
"l P.yXyX[.iXfX{.{.N.u H iX3Xz.r.9.JX).b.VXVXaXvXvXsX(.tX%Xn.+ ~ A D.}.w.I M S I ] } | -.! ) Q W 1 ; 1 1 C u.}.{ S.i.Z.u./ 7.aXs.i.P ,XyXOX$.C d.a.9.$.l K X.$.&.$.I.zXaXdXyXyXdXaXHXJXbX&Xo # V.B.H.C.P P V m { m H q % % X 3 @.5 5 4 4 @.zXiX2.oX3XJXJX9XN.7XG ",
"l uXrXn.:XpXHXJXJXJXHX=XAX3X:.! f iXAX|.Z 2XvXlX].e.` g.tX#X+ o w w.M _ _ Z B } } 0 r ) J.JXJXJX9XyXxX2 ; < =.7.I.'.2.I 5.{ eX/ q W yX%X9 H S.U U H H a K a X.&.p.l.zXdXyXyXyXaXuXlXHXDXcXOX= = p.q.B.Z H ~ V } N , , % ! rXyXGXGXVXcXv.5 5 E L 9.kXmXJXHX9XQ g ",
"lX<Xn.:X:X,XfXJXJXJXJXHXAX X( $.1.eXkX-XE.Z {.7X;XO.U 0.g.hX#X# X r _ _ A I Z m 9 , A JXJXJXZXJX9XaXhXyX8X< 2 > ) S.I I { 4.n.W q yXN.g P ! h p.T.X.D F a ..K ..;.6.BXdXdXyXaXaXaXzXnXpXnXkX#X. O g L B V I P , % % ! rXuXuXlXbXbXtXAXAX#X< $ X % =X1X1XhX{.n.M.",
"&Xz $X+X$X:X:XnXJXZXKXSXnX=X^ K ,.uXR.4XSX~.MXNX'.H D 1.f.kXhXrX1 = + r A r : : C uXnXJXJXK.i.j.h.2.DXbXcXyX8X> > ; ^ _ V =.g P rXmXC.-X/.e.r i r.Y F s D n a G &.I.tXaXdXuXaXuXlXuX(.z.pXnXgX%X# = o % , % ; 1 i xX8XyXR.|.iXpX>XkXJXDXDXGX<X@.O < < Q {.%XbXN.",
"i p.iX2X:X[.0XfXJXGXzXpXMX2X6.f R.,XR.(.mXk.!.mXHXMXK.T.;X].R.%XlX%X# + O % r uXlXcX7X) q.s.7.3.u.H 1.u.fXcXcXdX8X; ; ; E n.hXlXuX: m B { /.K.j } B d L X.l ! s X.P.o.VXuXuXlXvX2XX.T e.f.DXnXkX1XrXo o o # r hXmXbXyX( ].eXzX;Xd.' HXJXJXFXAXbX&X`.Q E mXFXHX@X",
"^ 9.iXeX0X:X$X7XFXJXZX1XMX3X|...m.#.#.M.$XP.0.d.=XuXCXJXJXJXJXuXuXcXrX%X+X2XaXlXuXN q.e.3.H e.w.7.P ;.C.r.pXI.lXlXyX$XW eXaXcXlXB ! A ~ A { x.d.B Z P U u H G a J 1.6.T VXcXuXE.G o.3./ Y.1XDXx.cXkX,X+X2XrXgX&X$X3.A ' |.VXZXlXiX7.CXvXVXHXJXFXAX1XmXJXFXSXa.z ",
"p.&.aXeXeXrXuXeXCXHXmX=X4XmXnXSX-XoX5XSXnXE.+.k.nXhXVXvXcXuXeX^.<.8.cXrXrXrXuXG.q ^ p.i././.K.%.w.( P -.U.P._ 8.R.cXuXdXyXuXP.9 { ^ I h w m I / m p P s K V q l L 9.P.T P.;.s O.,.9.1.9.d.T.Y.g.j.~.bX1X,XtX`.G.Z.[ [ I T.;XvXVX|.8.|.vXvXvXDXJXJXAXAXmXFXW ( &.",
"I I.2XeXeXiXeXsXHXJXmXP.=XpXmX4X-XMX4XmXmX+.l _ 8.tXvXaXuXuXtXp.c ' f.cXyX8XU.dX%.V s.q.H 4.HX X%.%.8 9 =.W 9 V h.d.cXlX7X& Z 0XfX} A I m N m [ S d p D s a i U Y E.:XT F f n ,.&.$.I.p.Y P.I.3.^. XnXnX,X%XfX8X( I B 4.Y.iXS iX:XI N {.@XN.m.@XHXJXhXkX1 e.#.&.",
"Y A.,.fXyXuXsXvXyXa.oX2Xa.mXkX3X*XSX4X>XoX&.f +.L 2XcXuXuXeX#.e Z ' f.uX8X= C.w.cX_.! N u.i.p.4.d.W.-XI.t.Z.y.%.1.u.R.yXyXE J.H.i.W.M T _ M c [ M B Z B V B U P 6.'.dXT a i G 6.D T p.-.Y p.D.|.e.h.h.kXhXv.FX9X.Xp Z |.|.' I S VX/.nXJXHXCXxXxXcXI.&XOX# q K s ",
"M $.6.X.fXaXaXR.&.9.I.!.mXFXmXoX!.4X6XoXx.x.#.n n !.nXvXvXD.%.y.v I 8.rX8XO V B 9XzXP T.eX|.p.].t.r.y.3.).>X(.^ w.W.h.dXmXb.y.Y.F.K.[.H.J.` w.I I P L L P B B B [ T.aXD.f s U o.L L Y 4.[ '.I.;Xr.cXh.nXmXv.vX7XaXiXq.:XY.p p 0 iX:XT.f.AXJXbX].z.' 1X&X% ~ B p ",
"T 5.a.X.P.;.K &.9.a.d.I.-X2XmXoXoX6XoXoX*.+.k.F d H o.C.T I.I./ b S 8.tX8X+ y.].].$Xc T.$X4.3.[.Y.:Xt.%./ ^ |.dXeXfXnXVXSX( i.q.I ' | i.M .X[ Z I w.Y P N c c B r.I S ,Xo.L Y Y Y 3.I } y.;XwX;XZ.f.2.mXcXv.iX0XsXvX:X.XZ.p V _ 0X;Xs.^.8.VXlX=X2.0.1X#X+ M 0 n ",
"X.W.=XO.G ..G 9.a.d.P.I.z.mXMX5XSX3XmXoXoXk.9.O.X.* 6 i b H Z.5./ ' 8.rX8XO $XKXNX[.p 0X/ $Xq.3.iXq.y.( H ) U.vX;X-XQ.rX$X: t Y.y.H.S W.K._ _ { Y.w.I 1.B v B B p.D.5.uXq.o.F P P F p.P.'.:XiXe.^  XVXkXrXv.0X[.aXfX;XY.t.B p P pX^.^.].I P.@X=Xz.g.hXcXo 6 7 v ",
"I I.pX,.l D X.2...o.I.d.6.I.R.;X~.5X6X+...l.T v d.-X/.W.W.`.].r.I 8.8.@X{., D.9XaXdX].^ [ ].3.4.[.Y.^ ^ A.S.V.P.3.W.W.rX8X1 6 J._.]. .} Y M H.Y.[.D.s.[ B p c L T.n NXb U I 3._ I I Y.}.0X:X|.r.i G VXtXFX[.DXiXuXfX(.Y.A.I b T.:XD.y.:XK.oX`.`. Xj.cX&X> e b b ",
"S A.:Xs.G F U o.X.O.*.a.9.+XR.,X!.JX4XR.d k.d.k.k.0.8.Q.).9XuXT.Z 8.' JXJX) D.k -.Y.dX+X:X3.%.u.s.d.(.>XI.I.).e./ d.h.lX8X> ) e ].qX_.T.{ w./ n.V.w.T.} N F B Z 6 T S Z p P _ / P 3.%.p.}.0XsX;XH b HXmX%Xm.qXqXiXiX].D.C.Z.Z :XK.A.pXnX X!.^.U.`.7XbXjX> 6 s c ",
"6.T T }.T X.o.,.$.9.$.9.k.eXiXiXI.T s U.R.x./.k.,._ 8.!.JX7XM.H _ 8.I JXJXB.-.W m %.aXsXzX3.e.P 5.s.^.I.W 9 N H / 8.h.lX%X< qXG.[ t.B.H.p.XXJXfX:XS dX'.} Z D #.B qXT.B J.}.3.%.t.P L T ].D.sXaX5.* #.#X`.[.:X:XqX.XV.p.Y.Y.}.r.h.nXHXfX>Xw.W.DXSXJXJX@X*XO a v ",
"5.d.$.,X6.o.J o.o.O.I.R.@.3 4 = ; 3 n.#.hXk.h.I.' _ 8.W.HXJXGXq.[ V ,XyX`.>XC.) N $XaXdXeX/ =.H C P.nXpXe.W , * i [ h.uX%Xv.Q ) e ( M ].~ _ [ T XXq.{.0Xv +     X 3 * S T.0X].y.Z / I H.;XqXsX].g.z cX<XQ [.0XeXiXT./ V.V.|.p.y.'.p.>XnXQ.#.u./.FXJXJX9X&XX 6 v ",
"u.v eXn Y ,.9.&.6.+.Q 4 Q Q n.&XkX4 5 $ > =.d.2.` I 8.u.CXdXaXZ.j N lXyXk 3.%.! N G.vXdX;X/ u #.$X:XiXeXY.W.C.) k i 8.Q.lX$X< 1 G.:X! 0 ].} H B (. XZXv.+ E W > @ # X = 4 |.qXZ.t.e.'.Z C.aXBXT N ;.hXrX{.:XiX;XH P e.I }.Y.C.w.}.y.I.' I /.s.k.nXJXZXdXrXM.X u ",
"% R R G f O.1.*., 3 2 #.lXbXGXgXkXSXJXjX# = ; V ` N ` p.T.H h u i lXlX=.C k g k =.b.R.sXP H ! b.:XU.G.Z.3.$.S.F.-.k Y Q.cX%X$X# Q :X6 ! e m B m ~ 9 E Q nXtXkXFXlXb.+Xo - = W ) G.D.I b {.n.! 9 P 8XtXn.pX:XC.N Y / I T.'.].P I 4.Y [ [ s Y d.k.5XZXJX7XcX+XX X ",
"X 3 a.G d.+Xg 3 g a rXtXbXhXcXpX2XmXJXJXJX<X= ; # i Z r. XW g % 8XaXyXq ! q.b.@.! G.b.p H T.T.x H =.n.k i H %.d.p.-.! 0.h.tX%Xn.o UXp q w N M 9 : 1 m ;XnXGXDXgXmX7XgX2X].= > = g e %.S.|.n.E , bX$X9 -.#.w B I ^ ^ ^ y.T.Y.^ [ [ 3.I i n { U 2.!.u.pXl.4XyXM.- ",
"OX- o # 3 Q Q z tX1XgXuXJ J &.o.z.!.-XDXkXkXjX#X# O # % , ! R.dX{.@X9 ! y.-.b.! z ! b.U T.y.! W 3.C.C.W r j ( %.r.-.^ / h.h.uXrX+X< = 2 9 : % % n.hXhXuXbXI _ | 8.| ] 1XkX2XtX3 4 E ) n.@.N.pXFXJX@.j p i p P ^ ^ y.C.I V.C.w.D.D.|.[ h { 7.[ 8.6.P ' z.).MXbX`.",
"gX*X> > < @.gX1XgXtXK J $.l &.*.a.*.=X0.g.!.tXgXlX`.= : -.JXJXHX].) ( ( C.Z.! ! ) u N 3.y.! ! y.A.P.C.C.-.k 3.%.! e.P H 2.g.Q.cXuX8X# . O % r hXhXlXlXC.Y._ I I B H c ' f.3XFX+X`.+ = 1 {.SXmXcXY.{.q 9 8 N P j V e.%.P p.D.Y.y.3.[ P 0 ` 2.2.W.w.,.U 2.kXJX5XbX",
"1X1X1X*XgX1XgX&Xs D K X.+.K $.&.I.,X$.o.,.x.8.-XgXVXgX<X`.rXHXJ.K.K.Z.! ! ^ ! p j P C y.I.y.V.-.S.V.V.C.A.;.H 3.^ H B I I / f.x.gX1XrX,Xb.,X,XhXtX( U.'.'.I A I I 4.i i Z f.-X+X2X2XpX,XbXtX,X0 K.:XD.u 9 h V m p P %./ Y.V.;Xy.0Xr.C.P i.u.7.h.u.F ,.| bXcX4Xg.",
"g.<.kX1XgX<X<Xx ;.d ..X.X.X.$.X.,.O.9.,./ / Y j.x.cX1XmX%Xb.b.^ / /.HXy.( y.~ H ^ '.;Xy.! e.y.-.p.T.D.V.;.%.^ h j m N P Y I I h.).3XcXtX,X,XuXNX6 c { '.Z.I _ I V { w.q B P 8.I :X2XkX`.#Xr 6 } P t.nX%.j ^ / 3.%.P / q.;X:X:Xp.Y S U.I.{ 2.0.V u.K.W.cXbXrXT <.",
"n <.g.1X2XE.z J #.u O.G X.O.&.2.,.o.d.[ P.R.` T.W.h.kXmXJXy.e.3.h A | HX) H m N / ^.).F.-.=.-.-.s.D.D.V.-.y.H -.P N P P I I _ [ s.f.j.cXhX#Xm.ZXBXI T.}.D.D.Z I I I 8.! V 3.7.3.[ 3.,Xm.@ 9 e i.-.( 0XT.( 8 h m q y.V.Y.:XqXe./ T.iX8 :XS.d.s.).i.7.(.bXcXrXX.v ",
"n ,.g.1X&XX a d a c X.o.T T 6.Y ` Y o.6.Z.t.}.T.| f.=X&Xm.L.K.( 9 & 0 K.! ^ } { u.! u.pXwXeX! -.A.^.V.I.C./.W.) 8 m V P 3.[ ' r.{ 8.3XtX#X3 dXZX6 Z D.Y.Y.}.D.I P I { ^ Z y.V t.u.pXJX@X@ % e W.! qXy.s.K.H.%.3.k U._.[.;X_.3.i d sXc Z.Y.j.K.8.m d.d.cXcXyX6.n ",
"n ,.g.gX%X. a d d b 6.Z o.,.Y ` T.t.4.;X9.Y.A.d.Z h.(.&X2 I { $./ ( k >X-.^ B L 4.%.^ N P._.#.Z.I.(.T.C.-.6.^.^.k , P [ I P I ' I }.8.(.,XX dXKX! S 0XY..X0X/ P I p.[ h P |.XXp.9.JXFXbX< r w 8 f.k A m P 4.F.q.B.%.C._.$XsX:XB 0 KXd ' }.u.| g.! N I.P.X.I n G ",
"T 8.g.1X#XO f 0 f I T _ I 2.} u.u.r.Z.5.T.I.i.` I /.(.#X2 P ' } e.oXb.=.U s.i.5.3.%.Z.! ^ q.I.C.S.y.C.-.#.F W.W.S.) h P P P I Z Z :X8.(.#X# ! U.U.Z ;X].A.[ Z / y.p.|.-.|.u.I.S.L.mXJXSXE g r e wX'.B y.'.q.%.T.^ ^ ^ ].U.aXzXe.0 B u.Y.|.|.S.8.s.~ 3.R.T T F T ",
"Y <.g.<X&X# S t F ' ,.{ } _ _ [ Z L 4.s.t.I.Z u.I | 3X+X2 r P ~.W.2.H 8 F N Z P P $.e./ 5./ ^ P.y.A.V.) ^ ^.S././.-.H ~ ^ _ A.I 4.i.nX(.%X# 8 U.=.c y.0X.X.XN m y.r.T.! m S.pXwXL.Q.kX%X; ^ C M D.e P V.:X'.V.^ 3.^ -.m.N.N.[.Y P '.:X;XT.aXs.L.L.j.{ 6.T F ,.O.",
",.z.4XgX&X% d F Z [ I i.Z.S u.} T _ ,.A.5.|.T I c ] h.#XOXE G.q.S w.m 9 b.! q 0 ^ K e.N N i.-.j %.W.Z.-.-.^ s.Z. XXXs.{ [ 4.[ ' I }.pX1X#X> ! ZXw N T NXqX].I Z D.r.e.0X-.0XfXaXnX).2X#Xo M t B ( S '.T..X0XD.! p.wXK.pXJXZXq L y.D.}.A.s.:X'.DXnX-X8.I ,.$.` ,.",
"S.oXW.1X&Xr G b Z _ S [ s.4.4.4.4.{ [ p.Y.9.T d.Z ' x.mXAXQ H.T.{ m [ %.a b.sX! P ! j P H 3.D s.-.F.C.! N H ^ r.s.>X^./ m I s.3.I (.Y 1X#X& 8 v 7 V.:XNXI.C.p.Y >X'..X;Xb.T.p.T.wXz.<XOXo C V._.( ;Xb wXT.b.^.].P.~ L ;X0XI.^ p ;XA.T.[ 7.' I aXaX7.| u.,.` 8.k.",
"!.!.d.,X*XJ I _ L s.[ { S { 4.Z.} 5.5.r.Y.k.L ] _ 0.Q.mXkX= G.].].Z 4.~ 8 v U.0X! ! j J y.j V 4. X-Xy.! H ^ / i.^.[.7.^.].'.I.2.t.(.1.,X+X-.H e.F '.Y.~ N U r.q.i.I.Z.y.b.! e.T.$.2.P n.n.2 V.T.}.%.M  XnXY.q.y.P y.e.'.;XV.z Q 4 v.T.r.[ [ 2.' _ ,.8.d.6.9.I.0.",
"oXP.tX&X% 1.,.' I Z S S Z F.t.w.r.u._ s.}.0.9.KX,.] f.4XmX,X, I.) L =Xh.-.m V F E.g h / g # # = # = 4 W p P / S.>XK.|.A.y.T.r.4.^.P.=X#XQ I L u / './ L y.V.B H s.y.e.y.!.-.3.H i 9.~.`.OX= b.T.G.T.}._.T.T.p.-.^ %.T.=.4 < < < = = $ > h 2.2.[ [ 9.I T ,.0.I.I.",
"&.a.tX&Xi { [ ] I M S b b s.Z.y.i.i.s.:XP.[ 1X|.n o.] z.FX%XO O N.h T.d.d.^ P H Y z : , ; , b.yX8X$ $ > = % h./. XD.T.C.V.( I [ -.-.tX8Xg T.V A B.V.T.[.T.i wXS.d.DXd.#.|.! ^ j A.I.oX@XM.> # b.n.W V.V.V.H.p.P P -.: 5 E `.bXFXxX#Xv.# O % ~ [ ,.Y L I ` 0.2.(.",
";.hX<X9 r.3.[ w.T y G.G.7 Z Z.D.F._ ;Xs.a.=XI.F._ 6.<.,.3X8XeXQ n.m T.I.f.*.%.&.z g 2 k hX8XlXcXgXhXyXrX> <   i 7.Q.>X-X/.~ B ) n.hXhXE P ( F i ].e.%.%.8 (.D.y.[.$.pX! &.=.U ;.p.!.^.).8X`.- < b.! %.%.q./ V Y , 1 Q lXhXyXbXbXcXN.tX,X#X# O : 6._ o.,.,.9.D #.",
"uXyX;./ } t. .T.6 qXZXKX! I t.T.2.I L | 9.Z d I s.5.T ` x.FXmXmXv.= ! C.8.%.K , , z bXhX8X@X+Xh.h.1XlXhXrXkX- @ # C.'.Y. XQ g @.hX1X+X^ B A ^ N e.V $.%.k 9 F H A.j / A.I.I.I.a.[.#.A.!.!.mXhX< < 1 V P I Z i & , ! bXbX&Xb.D.>XkXNX4XbXgX&XE # # 8 ,.` _ u u ! ",
",X! C.D.t.3.J.t [.KXZXqX) Z.H.D.Z.I s ^ b.v ] F L G ,.,.4Xx.FXSXmX> # > 9 2 # , %X@XlXJXnX! g `.8.h.d.h.%XrXmX`.o < < 1 E W P.hXrXE.8 m i & 9 m P B c ;.i i k k K z #.K C.a.I.A.a.#.-.S.Q.JXmXcX< = o * 9 % % : MXnXbXSXV.) g H 3.^.c f.hXgX1X%X# O $ % , , 1XtX",
"i v e._.J.I [ t 6 h 7 M _ S w.y.T.r.T c e _ Y.9.' ,.o.o.g.z.oXJXmXjXOX# = , M.@XdX9XP.4.a.DX;.! Y.F.F H W.).FXFX@X+X< 4 n.hXhXhXH q q , p y.) ^ e.fX_.H i u s J u u l k.I.|.a.I.I.a.y.a.k.!.nXFXnX8Xo o X # b.,X<XtXH ( /.-.! k N 5.! T f.-XcXtX2X+X+ : -.rXhXhX",
"Z.Y.T.T.y.M B S Z M H.A.} I } q._ T.s.G I t.F I T 6.U o.g.K.!.JXW.uXbXyXhXbXFXJXKX;.9.J R.JX;.C.y.s.3.S.e./.).kXHXxXyXlXhXhX,Xw ^ y.w W * N H q..XqX].-.i 8 9 W u u 9 y.F.d.I.&.I.I.A.p.;.y.kXoXbXyX,X+X+XrX<XtX&.#.aX}.K.F.y.-.( H g i F f.3X~.cX1XtX<X2XtX2X) ",
"t.t ].V.[ M F S y.Z.H.r.I B I B.y.A.T b Z.B p s p s U X.8.kXl.,.<.4XSXbXmXJXJXJXNX$XI.&./ C.y.e.q./.}.^.^.fXwX0. XnXlX&Xn., 9 0 6 c m ! r 9 h %.iX$X].C v 8 u g 8 k =.6.V.I.! * U 5.A.W.I.I.;.9.z.z.gXtX2X2X,Xk a.eXvXeXC.$.p.! -.^ k 8 t.s.,.~.g.kXgXrX#X& B } ",
"B.T._.Z.~ Z S I S _ Z.Z A A Z.Z.s.pX#.8 =.L v G 8 d F 6.k.e.k.(.X.O.-XAXbXyXz $.A.D X.K ! %.1.uXeXs.^.(.) z m zX` Q.VXFX`.% 6 k ) w ~ ( ( C 9 i n.].N h i k b.{.k ! ! %.H 6.wXg i 3.&.^ ^ $.G K $.0.z.tX#X#Xu D A.sXaXeX3./ j C W j ) =.e.I.A.Y F g.kX<X`.9 M y.",
"H.0X.XD.I I q.V.~  .J.I m A Z.D.'.AXj.! J w n U l F G &.6.z 9.9.K +X(.bX8X= T.0XJ X.$.&.$.ZXA.Y.pX^.>XF.W F F p B j.bXmX@.k W b.].{.pX3.3.r.( u.C i c j z U.[.b.* a U Y / |.(.W l 3.d.j s.p.6.$.D h.g.1X%X$ L s 6.;XeXU &.j #.U.nX-.U.W 3.I P |./ <.1X%X@ t } H.",
"[.H.H.D.T.H.y._.J..XZ.} P 3.[ '.'.wX).3.*.K v F K X.+.$.z.>.0.k.*.{.iX$XbX# ..J a D G U X.iX'.6.T.DXI.).! W m Y u.3XbXhX; Z.XXb.U.iX_. X3.w.( 3.3.8 q 8 ! ].dX$X=.Z / H s A.J ! ! A. X'.^ w.a.3.&.W.h.2X&XO F a U F d v F #.E.0XU.^ -.! ^ / T.=.H ,.1X<Xo D.t t ",
"B.~ q.B.D._.Y.]./ _.0XI.S y.[ I.;XY.!.oX$.G F s n s X.G G l 6.*.*.1XJXGX&X. a a u i l N 1.vXY.>XA.nX X-X-.k / [ { f.4X1X2 wXwXwXaXCXbX[.-Xi.S.%.M p p 0 ) [.0XU.#.8 p L Y / F C ( P u.s.i / r.[ H 0.0.rXOXX U D J P s i a #.$XHXCXY.F.-.^ N D.i N 8.hX#X@ k t  .",
"B.( P  .Z T.} q.'.s.q.Z.A.5.A..XP G T. X/ N G D G f G ..G X.X...9.8XZXbX@X$ a z u a l G P.sXI.e.p.!.W.W.W.^ [ P _ j.Q.<X#Xb.nX[.aXaXKXKXY W.1.R B c w c $XiXeX[.i E.i D $..XI.a N U $.u.e.^ %.1.P f.8.tX$X1 G 1.K K s D p ;.iXsXaX}.-.W ^ [ 3.c F 8.kX+X= 6 y B.",
"} q.( I M ~ A I I q.D.Z.e.P 3.d.1.5.(.5.X.Y D n G n X.X.....l ..k.E.VXAX&X= a u j l l J A.u.).4X(.I.!.-XS.C Y [ ,.g.j.gX+XE HX7XsXsXaXnX=XS M S i.c M c 0XiX0X[.! C.d j N A N z V P ^ / u. Xy.i / 0.W.2X#X% F G G U D N B eXHXHXnXC.nX! ! / :XA.B 2.W.#X@ & t D.",
"B.y.A q.A q.q.3.B.L 3.I A I 6.9.0.k.6.F v L X.O.o.+.o.G G l J *.-.oXvXDX8X, D a a a J U J :X&.&.K D u.h./.&.I T { j.).bX<X> pXiXiXuXuXeX'.' ` I w.I c e dXsX8XU.;.) p N 1.I ;.k ) ! p I ~ 4.h.T.i s ^.tX#Xn.Y F J A.f F V uXHXJXvXU.:X! H H V N N ` 8.#Xn.& ( V.",
"M  .y.T.M ( I Z I.p.B I Y V.^ =.l P U G J ..L O.X.o.K a l O.#.*.$.(.aXAX@Xz z u j l K &.K T.J U G f H [ L.r.A ` [ h.c.kXrX> W +XN.:X:X;X'.s.w.t.D.w._ Z NX{.5 = = o % V [ 3.( ) eXU.N B L ^ t.u.p.g g &XOX]./ X.Y a.Y N p vXJXJXeX;X'.p.! r.N H P P.h.<X%X+ m I ",
"M A ~ q.B A N A F Y 3.j X   o X O X X % F n p 9 n a f u ..x #.;.(.a.lXAX< * g u a l &.$.a.R.K Y s v N a I ^ W.W.s._ | x.gX+X1 E.:X;X;X[.Y.3.T.A.'.F.w.c v.Q 5 4 o # - O % P fX{.U.z p j 0 0 B N *.U.rX+XQ ].C.a.p.I.p.1.L ZXNXZX`.:X3.3.Z.3.H N -.DXpXhX%X+ : A ",
"( M A '.Z B I  .I q ; ; 1 =.FX&Xm.n.  $ X x l.E.=X9...l u K K J #...bX&X@.>.x u , ..*.p.Y.5.K ;.D 5.1.6.&.q.V.s.W.W.z.kXbX&XM.3 n.=X;X,X] a.'.I.].G.g g m.lXlXbXbXhX<X@.> 4 m.LXvXC.N 8 k _.>X[.#.=.hX8X{.G.e.D.I.;XT.) p 9XJXJXdXi C.}.%.[ L 0X,X$Xd.f.yX+Xo 9 ",
"W ~ M I B._.q.V.g % & MX[.OXmXmXnXmXmXmX< 3 2 *.*.K z z z l u 1 l hXhX# u ..oX:.2 a 6.l a.T.$.u 9.;Xd.>XQ.(.&.;X0Xd.0.x.x.m.hXn.> E '.P.T r.T.'.Q E r ,XbXDXAXAXkXAXAXAXmXM.Q 5 Q 9 n.#.:XiX{.M.! &XrXn.0XU ! U.W ].U.>XnXHXBXvXzX0X;XP.q.I.}.VXvXlX(.h.cXM.< + ",
"# > m Z I I , % 1 m.AXJXSX;X6.W.z.4XmXFXHX&X# = 5 *.x #.#.> > , <XyXOX, f f ..M.x z $.#.&.$.&.;X|.I.I.^.-X Xw.V.|.BX2X=X5XMXxXjXOX- > , b F g Q @.rXhX<XbXaXzX=X` <.0.kXJXNX+X4 3 > E qXv.Q Q [.uX`.n.].-.P I.pX{.0XU.q._ BXvXvXvXvXvXvXiXvXZXeXeX:XP tX3XKXrX+ ",
"m.O O + % % , r %XbX@XkX-.=.k ^ p.z.z.oXnXmXcX<X2 4 < > % , :.<XrX%X, u a f F *.>.z &.X.0Xa.D $.I.1.6.I.).|.s.}.$XvX:X4XE.x.l.nX{.M.$ # # % 1 U.lXVXcX4.U.iXrX&.d L I b nXxXrXmXnX< < 4 Q n.nXnXbXv.) C.( ^ P >XJXJXdX[.[ VXiXiXsXvXvXVXsX0X;X;XeX-.P (.DXHXhX&X",
"tX%X> O # , M.gXJXFXW 8 K &.#.#.-.3.&.0.x.JXFXSXFXv.> # 3 <X<XrX>.u a s a a G X.(.*.&.&.&.a.l 6.&.6.$.5.z.oX/.a.y.;.{.nXFX5X4X4XKX9XM.M.x P.rXbX<XyX8 p.9.s.I.H v F ` %.<.HXj.mXSXnXM.n.$XHXJXSX{.[.b.q.~ P P T.[.CXsXU.I Y.BXsXfXsXsXvX@X7XC.^ :XP P KXDXHXHXAX",
"AXkXyX,X2XnXFXkXq #.e.K l #.-.P.#.D #.,.6.oX6XHXJXmX@X&X<XrXrXd R.p.F b a Y n 9.I.z $.P.$.K l $.K G J X.X.9.h.oXz.Q.[.1.=XeX2XoXJX6XGXN.`.1XgX2Xa d t c G F 5.c v B 0 U Y 3X1.z.MXJX@XjXHXHXwX:XfXfXm.h c q ^ T.$XI qX].P 5.VXaXiXsXuXDXZX}.-.N F Z T.vXlXVXHXJX",
"HXHXAXhX`.2XP.C &.8 D N ..P.a.*.;.x n O.e.U oX5X5XJXNX<X*X#.d v b e.T.p f f U U (.*.J &.X.a G D l u f f B o.5.d.6X!. Xu.Y l.=XoX6XoXoXxXN.*X#.d d v d f c O.L 6.V 6.J s A.|.P.W.>X).FXbX,X) XXfXfXpXU._.8 M T.U.q P 3.dXq.^.DXVXiXaXsXiXW 8 i 9 B C.aXsXvXzXdXCX",
"vXFXFXyX`.+XC b.F ( U J -.;.a.I.W...8 D F &.,XkXmX*XzX8Xb.d p v p Z T v a D A.G }.6.u $.K l D l d b.;.E.P.n d c z.~.Q.Q.j.~.oXoXoXoX6X5X8X&Xa G s f n e G c F S 2.0.J b Z -X9.C.-Xh.GXgX< C.T.>X:XfXm.qX.X( ].C.1 8 8 iX[.V.Y ;XiX8X`.r.e.y.y.z V zXsXaXdXdXdXdX",
"sXCXDXJX`.O q.p V J 6.!.oXk.#...u.Q.#.U 9...^.FXFXE.@X%X. 0 d e d b L s s n v L F 0.a.^ K H u u ;.! P.U.$X..J ^ ,.Q.oX~.~.~.x.6XoX!.oXoX8XM.a T O.c ..v f 0 b ` ` ).J F D P.d.-X!.>XAX,X= H._..X:XwXU.:XqX].]. X1 p P :X[.y.V.I VXiXn.H Z.Z.F.! =.uXsXvXvXvXaXaX",
"$XJXJXJXnX< C 8 8 , s a U l.*.9.6.z.-X+XkX8XyXnXmX4X@X`.o 6 6 8 M L v U N P G D a a b.F D U a a =.&.U.U.E.J ..s 8.FX6X~.oXmX6X4XMX6XQ.6XcXOXn n 7 u J d f s n s I P f f n v X.I.p.sXAXhX= B.G.XX.XqX[.U.qXG.}.W.r 8 V qXT.T.].[ |.JXnX^.W.y.s.^.`.vXaX].a.'.sXiX",
"KXJXJXJXAXQ K.S.Z.z a m s f 1.0.1.1.I.P.R.l.dXtX5X4XKXyX+ w ( 0 S M 0 0 B J X.u.!.!.U.D L U K ! =.U.P.;.;.z K s 9.Q.oX).(.2X2X|.2X3X6X5XLX*X,.9.d.x d f p d w s 2.[ P G G b a ;.nX7XN.M.= V.G..XwXqXfX0XfX_.G.I.z 8 T.:XT.T.].3.F.`.pXT.K.>XfXwX=.n./ P L 4.^.VX",
"VXCXnXJXAX@.-.%.fXF.$.p D X.I 9.1.9.z.mXkXHXNX#XoX4XJXnX> r k t _ B $.q p D p 3.{ X.#.D ^ a z -.#.l #.U.P.:.&.G Y =X2.8.lX;X:XoX=X(.kXmX9XQ x.g.l.9.G s s 6 6 p 6.k.o.&.d D K C.JXJXJXyX  C.Y.]._._..XpX].}.H.^.b.i U.%.y.}.0XV.r.T.Y.:XHXJXJXJXpXb.^ [ 4.3.e. X",
"[ K.:XJXJX2 nX-.-.|.Z.G D H U $.6.z.nXJXHXJXZX`.k.oXJXJX4 ! n.9 _ (  .) C s a Y 1.P u / N s u s #.a s P.K s L G ` 2.0.7.(.=XoXd.k.0.K.mXbX1 3Xx.+.,.o.a v 6.V $.J B T ;.f d ;.].VXJXJXHXv.1 H._._._..XpX.XB.-.|.>XwXW ( G..Xn.>X^ 3.uXiXVXVXDXJXHXn.h H / h.K.S.",
"3.).^.lXFXn.JX^ ) 4.d.r.U L X.^ 9.dX0.oXJXFXFX{.$XfXmXJXv.g } (  .r.( q.J q G U w.U D D a i ! s i U D f D G ..1.5.2.8.' d.lX^.S.0.f.0.2X8Xi fXx.+.,.T h.z.k.$.Y 1.F Z G d K C.$X;XJXJXjXtX< =._._._.]..XC.H C.C.U.W.C.Y.) >X;Xp 8 H I :XsXFXVXNXJX|.k H 3.3.} ~ ",
"P 2.}.xXSXK.U.-.y.$.d.I.5.r.Y.Y.F -./ R.nXkXkX[.2XnXHXJXbX< ( C m P %.C 0 p m v 3.Y I m i ) i a H j U X.U G F 1.9.0.2X| | VX|.=X|.| 8.2X*X[ x.x.z.9.k.d.0.L.Z I v V I F d ].;.D :XJXJXbX+X> G.=._..X_.B m ( B ].P.B.e.wXV.B.^ i i N B :XvXJXJXJXa.1.Z.[ 3./ 3.w.",
"1.~ yXyXE ( /.K.dX0XA.d.i.6.h D zXs 9.;X].).kX|.8.nX-XFXnX> g k 8 C j i 0 s c p 0 i P P , @   . o o # u c G Y $.[ _ S._ ,.|.Y.|./.T.bXrX& S ' j.h.P.=XR.G.B.Z Y Z n { p f G d d a =XJXAXrX< < ].Y.-.w B ^ V G.U._.V H ^ % X X o o O # C.DXJXZXV.b.-.h B P F / / ",
"P [ bXjXk ~ BXZ.|.:XS.T./ H P G i a L 0XZ.T.S.u./ d.Q.FXSX7X< g h 9 q e p m F h i h , # X # 2 M.`.# o < X n.I.6.2.7.I.{ ' ' }.Z.C.i.cXrXG.F.e u.x.E.b.P.W.(.I I P V ' v F G f s p K CXJXbXOXO = 8 c B V H H -.G.T.P % % ; : `.#XM.o . X # b.P C.U.&.p H I H P B ",
"j lXbX`.~ I ].Y.} T.:X{ 5.^ #.P S.I.M.0X].T.5.S.8.I.-XmXJXmX2 - g ) ) 8 p m N m 9 % % , mXFXSXxXrXtX#X@XX O # n.I.u.{ 2.{ ' =.n.-.bXkXn.D.y &.' >XJX0. X3X9.X.U [ I L s s L f z D #.9.JXAXgXOX.   q V A -.y.V y.1 ; 1 b.tXgXtXtX1XtX#Xm.o o % y.B.y.%.I / / 4.N ",
"T.lXlXi V _ dXD.Y.I :XA.D.L D 7.).~.( ^ 7.D.R.;X1.s.8.).JXJXnX# . O q 9 q m N : % ; nXnXmXFXLXHXnXuX&XtXtX%X# # - i { _ q W Q [.lXrXb.sXT.b 7 S.FX Xz./.3X6.Z v V Y I.F C.) n s ;.f D 2XJXbX#XOXo o % M %.( : 1 2 n.tXhX1XtXh.h.W.hXhXtXrXn.# 3 Q p.I 3./ k r i ",
"yXaX, m A Z.eXi.[ _ I { ~ [ 1.h./.W.W.a./ 2.7.S.I 2.I j.~.3XbX2XE o   # * % ; # b.gXhXSXR.;XA.iXDXh.^ tXcXhXrX&X$ O # % r k lXlXyX{.[..XT | 0 K.JX1X4.~.!.z p s s V p.{ P F v l s i l a (.-XgXmXN.X o o # ; ; Q tXbX1XtXe.N 3.I.2.g.g.Q.nXcXrXv.4 > 9 k ; 2 , yX",
"yX9 M m P u.} w.7.I N I [ / I 5.K.).Z.s.I.[ 1.eX{ ,.7.u.j.g.~.bXhX,X. o o # i tXrXmXpX-.#.|.'.ZXKXh.G.p.z.#XuXrX#X#X% 9 ,XlXbXhX9 t S s.6 Y.e S JX>X+.h.z.l w s K f B / P O.F v v p n N I 9.x.SX<X,X`.O O , ,XhXcXtX-.^ V.^ 3.B I Y.r.h.-XkXcXzXyXO # : * 8XrXyX",
"9 w t S I S ;X_ P L Z 7.I [ / / [ x.).(.|.7._ 4.Y.;Xs.].^.7.0.I `.#X#X#X2X2X1X#X1X9 j 3.-.h P }.|.DX>X].VXJX>XDX%X$X2X,XlXhX'.w t Z Z..Xt.d u.` pXCXiXk.=X! D D p B F n 5.o.p f G G ..*.&.X.z.3X2XgXgX+X:X:XhX,XB b.P.3.D.p.}.p V :XC.[ 8.h.~.bXcXrX%XrXyXuXuXrX",
"w t m M I M A.I ~ P M I _ [ [ V [ P [ B Z.Y.[ / { { _ S d.>X/.4X-X9.kX1X:X2X`.g 8 j k H d.I.P.%.U DXJXJXNXKXJX3X~.VX`.N.M.g B._. .~ y  .t _ I M >XJXpX:Xd.=.b.d D v D m F l p -.s U o.$.6.G U k.oXQ.gX1XtX,X2X& c Z.'.T.].iXC.V Y / V / iX7. XDXfXbXrX8XyXyX9 0 ",
"t c c [ [ 4.T.A _ e M V b 2.[ I.T.u.P N _ { [ P [ U 5.{ | ` C.2.0.s.x.nX,XOXn.G.b.i W j V ;XwXp.y.9XNXZXDXZXJXfX7XDXKXFX$Xr Z D.B.D.H.H.t.Z 1.s..X>XDXeX'.^ 0 -.s l F U 6.s K R.z s $.6.d.|.9.-.A.h.f.tX+X].* b.9 p Z D.0X2.p.B 3.P t./ Y |.|.W.0.8.lXyX8X& e w ",
"M e S ] i.A.4.S -.M { [ S e u.H.s.S.F.2.T.s.B L Y I ` 4.[ Q.!.(.W.i.g.kXkX< {.! i k , p.|.}.:X>XFX-XCXeX].7X;X(.JXJXJXbXQ t t y M ~ e F.I M p b 0X'.wXFX'.P.1.s ;.U O.,.r.G 6.q.P.a...X.H R.K.) q.R _ 1X+XX c E.0 P B T.3.B I ^ I 4.3.^ [ T.s.4.8.2.uX8Xo V e c ",
"t e y { M u.F.' t | }.u.Y.{ S.w.;X:Xw.{ { 1.[ { S.` [ I Z 8.d.T.nX` z.HXmX> k p u.-.k F 1.}.Y.DXY.s.5.u.W.s.W.^.C./.hX,XO t V M I M 8 [ S M L T H..X'.pXJX=Xp.c _.d o.T.5.r.2.1.a.a.z n U &.3XP.S.|.8.1X+Xo .X=.8 p N P I H P H I 3.4.3.Z.3.u.P p.2.yX8XX e e y ",
"t m S [ _ _ _ ] ].T.Z.i.H.i.F.{ I.'.sX;XF.s.Z.I s.I { v P.j I |. X$X=XSXmX> k I 4.t.=.) '.:XE.A.r.U G &.6.5.z.Q.z.h.kX2Xo t c M M R e I I I S B |.iXsX.XwX=XH L -.U X.p.a.t.T 9.F *.H ;.X.k.W.p.|.|.' 2X#X- w _.b u p B P P Z.I y.3.1.3.4.3.N p 7.2.yX8Xo t t t ",
"w M I ] _ $X} Z } A.' | i.s.A.{ D.;XsX:XY.I.I p 1._ e M.7X7X9 [ ~.].-XmXyX< -.^ 4.|.Y.=.b.C.d./ L K G Y $.1.5.0.k.7.gX+X@ e w c Z M 0 M _ [ c w K.^.r.Z._.>X! &.s D $.X.o.5.a.9.F ;.].n / 0.z.-.;X| j.tX`.- 0 0 KXG.B y.P P q.r.[ Y D.^ / H j N 4.d.uX8Xo e w t ",
"_ t.I } } | i.I 7.{ { { { _ { u.s.i.H.sX}.;XT.I.7.S -.JXJXKXJXp _ j.W.kXnX< s.W.W.).Z.( C j Y ;XD D H U d.X.1.j 7.4.=X#Xo & t w t c M c B A 4.m Z Z.[ U ].nXI.} a f H G U Y o.I.Y d a s U I K.^.T.<.^.2X#X+ 6 qXZXU.0 c m / P [ I [ [ 3.P H m 1.Y 8.uX8Xo e t R ",
"w.i.I _ B.I M M _ I S _ I _ [ { I _ u.(.{ T.;X}.i.>XK.JXJX7XKXcXr S.| FXrXg w.B V 7./.I.d.) D D f |.A.Y U 6.8.z F K.g.#X+XO w t M [ S c I } D.I I [ { 1.s.iXZ.6.l f F J p G F R.X.U U D U 1.s._ / f.4.+Xv.O W dX7Xk 7 _.0 B I 3.e.r./ / / P P / P 8.(.8XE & ] M ",
"] Z.R { M A t A B M p w c B Z S B B _ i.[ _ i.T.| ~ 7.I >XZXKX;X) >Xc SXuXr P P e.V H h s F i s 6.s p I.d 0 G ).q.g.z.<X+X@ 0 c t S M ~ q.A Z A { A.{ ^ ^.8XT.h u U s D G G 5.5.X.o.Y L B ,.I |.{.^.{ SXFX! b.ZXsXN.ZXHXk I C.y.A.Z.[ F 4.1.L I v 8.W.yX%X+ t I ",
"S _.{ { i.A A I Z c B.-.n.>   % X   O q I h c A 8.J r.{ 6 7XVX%.m [.].1X`.9 P P I L L i N D i s |.G d L K.u u [ N ` 8.1X+X@ O t M Z  .t.M M B A P V / I Q < > # # # $ * B o.6.d.d.Y I B d V _  X/.p E.rXn.^.z aXKXVX: 6 w P VX:XT.r.w.Y / / ^ [ c _ u.tX$X@ % w.",
"R M | K.j.~ t 9 q W k 2 > v.W 2X:X1 > ; > p.i.2.j.r.7.L.i.:X>X[ 9 [.AXkX=.B.b.T.B P U p m i G.) D a [.! ^.-.k P [ N ` 8.2XOX. + c I  .M S A 4.Z w.[ : ; g n.lXyX%X@.# O $ W o.Z.4.o.F B L [ I ^.D.6 GXtX% I =.p C.8.C % -.U.6 3..XT.' i.[ 4.I P 7.N 8.d.$XOX; 9 "
};
