/* XPM */
static char *_cf340dc1e8644cd824c3f1df74dca6f5fy3aKk2FAvQkytA[] = {
/* columns rows colors chars-per-pixel */
"32 32 21 1 ",
"  c #433536",
". c #865F63",
"X c #6A5153",
"o c #644E4F",
"O c #4E3E40",
"+ c #604B4C",
"@ c #544445",
"# c #263441",
"$ c #34414D",
"% c #32404E",
"& c #4C6D8A",
"* c #425669",
"= c #425465",
"- c #40505F",
"; c #415363",
": c #405262",
"> c #405161",
", c #1C354B",
"< c #284058",
"1 c #2C465F",
"2 c white",
/* pixels */
" .............................. ",
" .XXXXXXXXXXXXoXXXXXXXXXXXoooooO",
" .XXXXXXXXXXXXoXoXXXXXoXXXoooooO",
"O.XXXXXXXXXoXXXXXXXooXXXXXXXoooO",
"OXXXXXXXXooXXXo+XXXXXoXXXXXXXoo ",
"OXXXXXXXXXoXXXoXXXXXXXXXoXXXXoo ",
"OXXXXXXXXXXXXoXoXXXoXXXXXXXXXX@ ",
"OXoXXoXXXXXXXoXXXXXXXXXXXoXXXX@O",
"O@XXXXXXXXoXXXXXXoXXoXXXXXXXXX@O",
" @XXooXXXXXXoXoXoXXXXXXXooXXXX@O",
" @XXXXooXXoXXXXXXXXXXXXXXXXoXX@O",
" XXXXXXXXXoXXXXXXXXXXXXXXoXXXX@O",
" XXXXoXXXXXXXXXoXXXXXXXXXXXXXXX ",
" XXXXXXXXXXXXXXXXXXo+ooXXXXoXXX ",
" @XXXXXXXXXXXXoXXXXXXXXXXXXXXX@ ",
"#$$$$$$$$$$$$$$$$$$$$$$$$$$$$$$#",
"#$$$$$$$$$$$$$$$$$$$$$$$%%%%$$$$",
"#&&&&&&&&&&&&&&&&&&&&&&&&&&&&&&#",
"#***=*****==*******=****=*=***-%",
"#******;*=*********;=*********-%",
"#*****==***==******;****=*****-%",
"#****=*=*==***=**;*=*;*****;**-%",
"#**=*=;*=:=*****=*=******;****-%",
"#***===*=;=*=*;=***=*=*;*=**;*-%",
"#**;;***=====*=;;=*;==>;*=****-%",
"#***=**=*=:>*=***==**=====****-#",
"#****=;*;*==***;**=**=*===****-#",
"#******;*****=*;=*****=****=**-#",
"#****=**;=;******=;*********=*-#",
"#******=*=*=*=*****=**********-%",
"#*****=;*=******------********-#",
",,,,,,,<<<<1<<1<<,,<<<<11<<,,,,,"
};
