/* XPM */
static char *f84d365c6e2e45a8f5a13419da6658fdrs2FjKDi5z4aCCLB[] = {
/* columns rows colors chars-per-pixel */
"32 32 5 1 ",
"  c #3C4D46",
". c #7A9488",
"X c #8CA499",
"o c #667D73",
"O c white",
/* pixels */
" .X.o  XX.oo  XX.oo  XX.oo  X.o ",
".X.o  XX.oo  XX.oo  XX.oo  X.o  ",
"X.o  XX.oo  XX.oo  XX.oo  X.o   ",
".o  XX.oo  XX.oo  XX.oo  X.o   X",
"o  XX.oo  XX.oo  XX.oo  X.o   X.",
"  XX.oo  XX.oo  XX.oo  X.o   X.o",
" XX.oo  XX.oo  XX.oo  X.o   X.o ",
"XX.oo  XX.oo  XX.oo  X.o   X.o  ",
"X.oo  XX.oo  XX.oo  X.o   X.o  X",
".oo  XX.oo  XX.oo  X.o   X.o  XX",
"oo  XX.oo  XX.oo  X.o   X.o  XX.",
"o  XX.oo  XX.oo  X.o   X.o  XX.o",
"  XX.oo  XX.oo  X.o   X.o  XX.oo",
" XX.oo  XX.oo  X.o   X.o  XX.oo ",
"XX.oo  XX.oo  X.o   X.o  XX.oo  ",
"X.oo  XX.oo  X.o   X.o  XX.oo  X",
".oo  XX.oo  X.o   X.o  XX.oo  XX",
"oo  XX.oo  X.o   X.o  XX.oo  XX.",
"o  XX.oo  X.o   X.o  XX.oo  XX.o",
"  XX.oo  X.o   X.o  XX.oo  XX.oo",
" XX.oo  X.o   X.o  XX.oo  XX.oo ",
"XX.oo  X.o   X.o  XX.oo  XX.oo  ",
"X.oo  X.o   X.o  XX.oo  XX.oo  X",
".oo  X.o   X.o  XX.oo  XX.oo  XX",
"oo  X.o   X.o  XX.oo  XX.oo  XX.",
"o  X.o   X.o  XX.oo  XX.oo  XX.o",
"  X.o   X.o  XX.oo  XX.oo  XX.oo",
" X.o   X.o  XX.oo  XX.oo  XX.oo ",
"X.o   X.o  XX.oo  XX.oo  XX.oo  ",
".o   X.o  XX.oo  XX.oo  XX.oo  X",
"o   X.o  XX.oo  XX.oo  XX.oo  X.",
"   X.o  XX.oo  XX.oo  XX.oo  X.o"
};
